; Generated with Voxelizer 2
;; { "info": [
;;         { "toolhead": "CNC" },
;;         { "workflow": "2d milling" },
;;         { "voxelizer_version": "v2.0.0-macOS-1-g90eaae" },
;;         { "voxel_size": 0.23999999463558197 },
;;         { "printing_time": "22min 30s " },
;;         { "printer": "ZMorph VX" },
;;         { "material_gravity_x": "Left" },
;;         { "material_gravity_y": "Front" },
;;         { "material_size_x": 100.0 },
;;         { "material_size_y": 100.0 },
;;         { "material_size_z": 1.5 }
;;     ] }
; number of tools: 1
; milling depth: 0.250000
; Operation: Engrave
; Tool shape: V-shape
; Tool diameter: 0.100000
G1 X10.143 Y10.187 Z8.000 F6000.000
G1 X10.143 Y10.187 Z-0.250 F600.000
G1 X10.143 Y10.187 Z-0.250 F600.000
G1 X10.136 Y10.196 Z-0.250 F600.000
G1 X10.136 Y10.196 Z8.000 F6000.000
G1 X10.107 Y10.275 Z8.000 F6000.000
G1 X10.107 Y10.275 Z-0.250 F600.000
G1 X10.107 Y10.275 Z-0.250 F600.000
G1 X10.107 Y48.528 Z-0.250 F600.000
G1 X10.107 Y48.528 Z8.000 F6000.000
G1 X10.107 Y48.529 Z8.000 F6000.000
G1 X10.107 Y48.529 Z-0.250 F600.000
G1 X10.107 Y48.529 Z-0.250 F600.000
G1 X10.107 Y48.529 Z-0.250 F600.000
G1 X10.107 Y48.529 Z8.000 F6000.000
G1 X10.145 Y48.618 Z8.000 F6000.000
G1 X10.145 Y48.618 Z-0.250 F600.000
G1 X10.145 Y48.618 Z-0.250 F600.000
G1 X10.155 Y48.626 Z-0.250 F600.000
G1 X10.155 Y48.626 Z8.000 F6000.000
G1 X10.235 Y48.655 Z8.000 F6000.000
G1 X10.235 Y48.655 Z-0.250 F600.000
G1 X10.235 Y48.655 Z-0.250 F600.000
G1 X63.345 Y48.407 Z-0.250 F600.000
G1 X63.345 Y48.407 Z8.000 F6000.000
G1 X63.345 Y48.407 Z8.000 F6000.000
G1 X63.345 Y48.407 Z-0.250 F600.000
G1 X63.345 Y48.407 Z-0.250 F600.000
G1 X63.346 Y48.407 Z-0.250 F600.000
G1 X63.346 Y48.407 Z8.000 F6000.000
G1 X63.436 Y48.368 Z8.000 F6000.000
G1 X63.436 Y48.368 Z-0.250 F600.000
G1 X63.436 Y48.368 Z-0.250 F600.000
G1 X63.443 Y48.359 Z-0.250 F600.000
G1 X63.443 Y48.359 Z8.000 F6000.000
G1 X63.472 Y48.280 Z8.000 F6000.000
G1 X63.472 Y48.280 Z-0.250 F600.000
G1 X63.472 Y48.280 Z-0.250 F600.000
G1 X63.349 Y10.151 Z-0.250 F600.000
G1 X63.349 Y10.151 Z8.000 F6000.000
G1 X63.349 Y10.151 Z8.000 F6000.000
G1 X63.349 Y10.151 Z-0.250 F600.000
G1 X63.349 Y10.151 Z-0.250 F600.000
G1 X63.349 Y10.150 Z-0.250 F600.000
G1 X63.349 Y10.150 Z8.000 F6000.000
G1 X63.311 Y10.060 Z8.000 F6000.000
G1 X63.311 Y10.060 Z-0.250 F600.000
G1 X63.311 Y10.060 Z-0.250 F600.000
G1 X63.302 Y10.053 Z-0.250 F600.000
G1 X63.302 Y10.053 Z8.000 F6000.000
G1 X63.222 Y10.024 Z8.000 F6000.000
G1 X63.222 Y10.024 Z-0.250 F600.000
G1 X63.222 Y10.024 Z-0.250 F600.000
G1 X10.234 Y10.148 Z-0.250 F600.000
G1 X10.234 Y10.148 Z8.000 F6000.000
G1 X10.234 Y10.148 Z8.000 F6000.000
G1 X10.234 Y10.148 Z-0.250 F600.000
G1 X10.234 Y10.148 Z-0.250 F600.000
G1 X10.233 Y10.148 Z-0.250 F600.000
G1 X10.233 Y10.148 Z8.000 F6000.000
G1 X15.629 Y24.767 Z8.000 F6000.000
G1 X15.629 Y24.767 Z-0.250 F600.000
G1 X15.629 Y24.767 Z-0.250 F600.000
G1 X15.724 Y24.738 Z-0.250 F600.000
G1 X15.724 Y24.738 Z8.000 F6000.000
G1 X15.540 Y24.814 Z8.000 F6000.000
G1 X15.540 Y24.814 Z-0.250 F600.000
G1 X15.540 Y24.814 Z-0.250 F600.000
G1 X15.629 Y24.767 Z-0.250 F600.000
G1 X15.830 Y24.728 Z-0.250 F600.000
G1 X19.778 Y24.728 Z-0.250 F600.000
G1 X19.884 Y24.738 Z-0.250 F600.000
G1 X20.068 Y24.814 Z-0.250 F600.000
G1 X20.068 Y24.814 Z8.000 F6000.000
G1 X20.068 Y24.814 Z8.000 F6000.000
G1 X20.068 Y24.814 Z-0.250 F600.000
G1 X20.068 Y24.814 Z-0.250 F600.000
G1 X20.145 Y24.878 Z-0.250 F600.000
G1 X20.145 Y24.878 Z8.000 F6000.000
G1 X20.183 Y24.924 Z8.000 F6000.000
G1 X20.183 Y24.924 Z-0.250 F600.000
G1 X20.183 Y24.924 Z-0.250 F600.000
G1 X20.184 Y24.926 Z-0.250 F600.000
G1 X20.184 Y24.926 Z8.000 F6000.000
G1 X20.270 Y24.970 Z8.000 F6000.000
G1 X20.270 Y24.970 Z-0.250 F600.000
G1 X20.270 Y24.970 Z-0.250 F600.000
G1 X20.276 Y24.970 Z-0.250 F600.000
G1 X20.276 Y24.970 Z8.000 F6000.000
G1 X20.281 Y24.971 Z8.000 F6000.000
G1 X20.281 Y24.971 Z-0.250 F600.000
G1 X20.281 Y24.971 Z-0.250 F600.000
G1 X21.292 Y24.971 Z-0.250 F600.000
G1 X25.281 Y21.035 Z-0.250 F600.000
G1 X25.281 Y21.035 Z8.000 F6000.000
G1 X25.281 Y21.035 Z8.000 F6000.000
G1 X25.281 Y21.035 Z-0.250 F600.000
G1 X25.281 Y21.035 Z-0.250 F600.000
G1 X25.282 Y21.034 Z-0.250 F600.000
G1 X25.282 Y21.034 Z8.000 F6000.000
G1 X25.318 Y20.944 Z8.000 F6000.000
G1 X25.318 Y20.944 Z-0.250 F600.000
G1 X25.318 Y20.944 Z-0.250 F600.000
G1 X25.317 Y20.932 Z-0.250 F600.000
G1 X25.317 Y20.932 Z8.000 F6000.000
G1 X25.271 Y20.847 Z8.000 F6000.000
G1 X25.271 Y20.847 Z-0.250 F600.000
G1 X25.271 Y20.847 Z-0.250 F600.000
G1 X25.262 Y20.839 Z-0.250 F600.000
G1 X25.262 Y20.839 Z8.000 F6000.000
G1 X25.191 Y20.818 Z8.000 F6000.000
G1 X25.191 Y20.818 Z-0.250 F600.000
G1 X25.191 Y20.818 Z-0.250 F600.000
G1 X25.044 Y20.818 Z-0.250 F600.000
G1 X24.938 Y20.808 Z-0.250 F600.000
G1 X24.754 Y20.731 Z-0.250 F600.000
G1 X24.754 Y20.731 Z8.000 F6000.000
G1 X24.754 Y20.731 Z8.000 F6000.000
G1 X24.754 Y20.731 Z-0.250 F600.000
G1 X24.754 Y20.731 Z-0.250 F600.000
G1 X24.677 Y20.668 Z-0.250 F600.000
G1 X24.677 Y20.668 Z8.000 F6000.000
G1 X24.614 Y20.590 Z8.000 F6000.000
G1 X24.614 Y20.590 Z-0.250 F600.000
G1 X24.614 Y20.590 Z-0.250 F600.000
G1 X24.566 Y20.502 Z-0.250 F600.000
G1 X24.527 Y20.301 Z-0.250 F600.000
G1 X24.527 Y18.813 Z-0.250 F600.000
G1 X24.537 Y18.707 Z-0.250 F600.000
G1 X24.614 Y18.523 Z-0.250 F600.000
G1 X24.614 Y18.523 Z8.000 F6000.000
G1 X24.614 Y18.523 Z8.000 F6000.000
G1 X24.614 Y18.523 Z-0.250 F600.000
G1 X24.614 Y18.523 Z-0.250 F600.000
G1 X24.677 Y18.446 Z-0.250 F600.000
G1 X24.677 Y18.446 Z8.000 F6000.000
G1 X24.754 Y18.382 Z8.000 F6000.000
G1 X24.754 Y18.382 Z-0.250 F600.000
G1 X24.754 Y18.382 Z-0.250 F600.000
G1 X24.843 Y18.335 Z-0.250 F600.000
G1 X25.044 Y18.296 Z-0.250 F600.000
G1 X28.501 Y18.296 Z-0.250 F600.000
G1 X32.032 Y18.296 Z-0.250 F600.000
G1 X32.138 Y18.306 Z-0.250 F600.000
G1 X32.322 Y18.382 Z-0.250 F600.000
G1 X32.322 Y18.382 Z8.000 F6000.000
G1 X32.322 Y18.382 Z8.000 F6000.000
G1 X32.322 Y18.382 Z-0.250 F600.000
G1 X32.322 Y18.382 Z-0.250 F600.000
G1 X32.399 Y18.446 Z-0.250 F600.000
G1 X32.399 Y18.446 Z8.000 F6000.000
G1 X32.462 Y18.523 Z8.000 F6000.000
G1 X32.462 Y18.523 Z-0.250 F600.000
G1 X32.462 Y18.523 Z-0.250 F600.000
G1 X32.510 Y18.612 Z-0.250 F600.000
G1 X32.549 Y18.813 Z-0.250 F600.000
G1 X32.549 Y20.301 Z-0.250 F600.000
G1 X32.539 Y20.406 Z-0.250 F600.000
G1 X32.462 Y20.590 Z-0.250 F600.000
G1 X32.462 Y20.590 Z8.000 F6000.000
G1 X32.462 Y20.590 Z8.000 F6000.000
G1 X32.462 Y20.590 Z-0.250 F600.000
G1 X32.462 Y20.590 Z-0.250 F600.000
G1 X32.399 Y20.668 Z-0.250 F600.000
G1 X32.399 Y20.668 Z8.000 F6000.000
G1 X32.322 Y20.731 Z8.000 F6000.000
G1 X32.322 Y20.731 Z-0.250 F600.000
G1 X32.322 Y20.731 Z-0.250 F600.000
G1 X32.233 Y20.778 Z-0.250 F600.000
G1 X32.032 Y20.818 Z-0.250 F600.000
G1 X29.109 Y20.818 Z-0.250 F600.000
G1 X22.804 Y27.070 Z-0.250 F600.000
G1 X22.568 Y27.280 Z-0.250 F600.000
G1 X22.350 Y27.397 Z-0.250 F600.000
G1 X22.113 Y27.469 Z-0.250 F600.000
G1 X21.922 Y27.487 Z-0.250 F600.000
G1 X21.922 Y27.487 Z8.000 F6000.000
G1 X21.922 Y27.487 Z8.000 F6000.000
G1 X21.922 Y27.487 Z-0.250 F600.000
G1 X21.922 Y27.487 Z-0.250 F600.000
G1 X21.922 Y27.487 Z-0.250 F600.000
G1 X21.922 Y27.487 Z8.000 F6000.000
G1 X21.866 Y27.493 Z8.000 F6000.000
G1 X21.866 Y27.493 Z-0.250 F600.000
G1 X21.866 Y27.493 Z-0.250 F600.000
G1 X21.810 Y27.487 Z-0.250 F600.000
G1 X21.810 Y27.487 Z8.000 F6000.000
G1 X21.798 Y27.487 Z8.000 F6000.000
G1 X21.798 Y27.487 Z-0.250 F600.000
G1 X21.798 Y27.487 Z-0.250 F600.000
G1 X20.281 Y27.487 Z-0.250 F600.000
G1 X20.281 Y27.487 Z8.000 F6000.000
G1 X20.281 Y27.487 Z8.000 F6000.000
G1 X20.281 Y27.487 Z-0.250 F600.000
G1 X20.281 Y27.487 Z-0.250 F600.000
G1 X20.280 Y27.487 Z-0.250 F600.000
G1 X20.280 Y27.487 Z8.000 F6000.000
G1 X20.191 Y27.525 Z8.000 F6000.000
G1 X20.191 Y27.525 Z-0.250 F600.000
G1 X20.191 Y27.525 Z-0.250 F600.000
G1 X20.187 Y27.529 Z-0.250 F600.000
G1 X20.187 Y27.529 Z8.000 F6000.000
G1 X20.145 Y27.580 Z8.000 F6000.000
G1 X20.145 Y27.580 Z-0.250 F600.000
G1 X20.145 Y27.580 Z-0.250 F600.000
G1 X20.068 Y27.643 Z-0.250 F600.000
G1 X20.068 Y27.643 Z8.000 F6000.000
G1 X20.068 Y27.643 Z8.000 F6000.000
G1 X20.068 Y27.643 Z-0.250 F600.000
G1 X20.068 Y27.643 Z-0.250 F600.000
G1 X19.979 Y27.690 Z-0.250 F600.000
G1 X19.778 Y27.730 Z-0.250 F600.000
G1 X15.830 Y27.730 Z-0.250 F600.000
G1 X15.724 Y27.719 Z-0.250 F600.000
G1 X15.540 Y27.643 Z-0.250 F600.000
G1 X15.540 Y27.643 Z8.000 F6000.000
G1 X15.540 Y27.643 Z8.000 F6000.000
G1 X15.540 Y27.643 Z-0.250 F600.000
G1 X15.540 Y27.643 Z-0.250 F600.000
G1 X15.463 Y27.580 Z-0.250 F600.000
G1 X15.463 Y27.580 Z8.000 F6000.000
G1 X15.400 Y27.502 Z8.000 F6000.000
G1 X15.400 Y27.502 Z-0.250 F600.000
G1 X15.400 Y27.502 Z-0.250 F600.000
G1 X15.352 Y27.414 Z-0.250 F600.000
G1 X15.313 Y27.213 Z-0.250 F600.000
G1 X15.313 Y25.245 Z-0.250 F600.000
G1 X15.323 Y25.139 Z-0.250 F600.000
G1 X15.352 Y25.044 Z-0.250 F600.000
G1 X15.400 Y24.955 Z-0.250 F600.000
G1 X15.400 Y24.955 Z8.000 F6000.000
G1 X15.400 Y24.955 Z8.000 F6000.000
G1 X15.400 Y24.955 Z-0.250 F600.000
G1 X15.400 Y24.955 Z-0.250 F600.000
G1 X15.463 Y24.878 Z-0.250 F600.000
G1 X15.463 Y24.878 Z8.000 F6000.000
G1 X15.824 Y25.239 Z8.000 F6000.000
G1 X15.824 Y25.239 Z-0.250 F600.000
G1 X15.824 Y25.239 Z-0.250 F600.000
G1 X15.824 Y27.219 Z-0.250 F600.000
G1 X19.784 Y27.219 Z-0.250 F600.000
G1 X19.784 Y26.979 Z-0.250 F600.000
G1 X21.829 Y26.979 Z-0.250 F600.000
G1 X22.013 Y26.968 Z-0.250 F600.000
G1 X22.154 Y26.925 Z-0.250 F600.000
G1 X22.285 Y26.855 Z-0.250 F600.000
G1 X22.399 Y26.762 Z-0.250 F600.000
G1 X28.849 Y20.307 Z-0.250 F600.000
G1 X32.038 Y20.307 Z-0.250 F600.000
G1 X32.038 Y18.807 Z-0.250 F600.000
G1 X28.575 Y18.807 Z-0.250 F600.000
G1 X25.038 Y18.807 Z-0.250 F600.000
G1 X25.038 Y20.307 Z-0.250 F600.000
G1 X26.727 Y20.307 Z-0.250 F600.000
G1 X21.555 Y25.479 Z-0.250 F600.000
G1 X19.784 Y25.479 Z-0.250 F600.000
G1 X19.784 Y25.239 Z-0.250 F600.000
G1 X15.824 Y25.239 Z-0.250 F600.000
G1 X15.824 Y25.239 Z8.000 F6000.000
G1 X15.323 Y27.318 Z8.000 F6000.000
G1 X15.323 Y27.318 Z-0.250 F600.000
G1 X15.323 Y27.318 Z-0.250 F600.000
G1 X15.352 Y27.414 Z-0.250 F600.000
G1 X15.352 Y27.414 Z8.000 F6000.000
G1 X15.629 Y27.690 Z8.000 F6000.000
G1 X15.629 Y27.690 Z-0.250 F600.000
G1 X15.629 Y27.690 Z-0.250 F600.000
G1 X15.724 Y27.719 Z-0.250 F600.000
G1 X15.724 Y27.719 Z8.000 F6000.000
G1 X19.884 Y27.720 Z8.000 F6000.000
G1 X19.884 Y27.720 Z-0.250 F600.000
G1 X19.884 Y27.720 Z-0.250 F600.000
G1 X19.979 Y27.690 Z-0.250 F600.000
G1 X19.979 Y27.690 Z8.000 F6000.000
G1 X21.829 Y26.979 Z8.000 F6000.000
G1 X21.829 Y26.979 Z-0.250 F600.000
G1 X21.829 Y26.979 Z-0.250 F600.000
G1 X21.866 Y26.982 Z-0.250 F600.000
G1 X21.866 Y26.982 Z8.000 F6000.000
G1 X22.399 Y26.762 Z8.000 F6000.000
G1 X22.399 Y26.762 Z-0.250 F600.000
G1 X22.399 Y26.762 Z-0.250 F600.000
G1 X22.422 Y26.733 Z-0.250 F600.000
G1 X22.422 Y26.733 Z8.000 F6000.000
G1 X22.802 Y27.072 Z8.000 F6000.000
G1 X22.802 Y27.072 Z-0.250 F600.000
G1 X22.802 Y27.072 Z-0.250 F600.000
G1 X22.804 Y27.070 Z-0.250 F600.000
G1 X22.804 Y27.070 Z8.000 F6000.000
G1 X21.293 Y24.971 Z8.000 F6000.000
G1 X21.293 Y24.971 Z-0.250 F600.000
G1 X21.293 Y24.971 Z-0.250 F600.000
G1 X21.292 Y24.971 Z-0.250 F600.000
G1 X21.292 Y24.971 Z8.000 F6000.000
G1 X19.979 Y24.767 Z8.000 F6000.000
G1 X19.979 Y24.767 Z-0.250 F600.000
G1 X19.979 Y24.767 Z-0.250 F600.000
G1 X19.884 Y24.738 Z-0.250 F600.000
G1 X19.884 Y24.738 Z8.000 F6000.000
G1 X19.590 Y29.956 Z8.000 F6000.000
G1 X19.590 Y29.956 Z-0.250 F600.000
G1 X19.590 Y29.956 Z-0.250 F600.000
G1 X19.592 Y29.957 Z-0.250 F600.000
G1 X19.592 Y29.957 Z8.000 F6000.000
G1 X19.648 Y32.487 Z8.000 F6000.000
G1 X19.648 Y32.487 Z-0.250 F600.000
G1 X19.648 Y32.487 Z-0.250 F600.000
G1 X19.650 Y32.487 Z-0.250 F600.000
G1 X19.650 Y32.487 Z8.000 F6000.000
G1 X27.033 Y33.229 Z8.000 F6000.000
G1 X27.033 Y33.229 Z-0.250 F600.000
G1 X27.033 Y33.229 Z-0.250 F600.000
G1 X27.062 Y33.134 Z-0.250 F600.000
G1 X27.062 Y33.134 Z8.000 F6000.000
G1 X27.110 Y33.045 Z8.000 F6000.000
G1 X27.110 Y33.045 Z-0.250 F600.000
G1 X27.110 Y33.045 Z-0.250 F600.000
G1 X27.033 Y33.229 Z-0.250 F600.000
G1 X27.023 Y33.335 Z-0.250 F600.000
G1 X27.023 Y36.866 Z-0.250 F600.000
G1 X27.026 Y40.360 Z-0.250 F600.000
G1 X27.020 Y42.805 Z-0.250 F600.000
G1 X27.044 Y43.051 Z-0.250 F600.000
G1 X27.116 Y43.289 Z-0.250 F600.000
G1 X27.233 Y43.507 Z-0.250 F600.000
G1 X27.355 Y43.656 Z-0.250 F600.000
G1 X27.355 Y43.656 Z8.000 F6000.000
G1 X27.355 Y43.656 Z8.000 F6000.000
G1 X27.355 Y43.656 Z-0.250 F600.000
G1 X27.355 Y43.656 Z-0.250 F600.000
G1 X27.390 Y43.699 Z-0.250 F600.000
G1 X27.390 Y43.699 Z8.000 F6000.000
G1 X27.441 Y43.741 Z8.000 F6000.000
G1 X27.441 Y43.741 Z-0.250 F600.000
G1 X27.441 Y43.741 Z-0.250 F600.000
G1 X27.443 Y43.742 Z-0.250 F600.000
G1 X27.443 Y43.742 Z8.000 F6000.000
G1 X27.443 Y43.742 Z8.000 F6000.000
G1 X27.443 Y43.742 Z-0.250 F600.000
G1 X27.443 Y43.742 Z-0.250 F600.000
G1 X27.723 Y44.075 Z-0.250 F600.000
G1 X27.723 Y44.749 Z-0.250 F600.000
G1 X27.762 Y44.950 Z-0.250 F600.000
G1 X27.810 Y45.038 Z-0.250 F600.000
G1 X27.810 Y45.038 Z8.000 F6000.000
G1 X27.873 Y45.116 Z8.000 F6000.000
G1 X27.873 Y45.116 Z-0.250 F600.000
G1 X27.873 Y45.116 Z-0.250 F600.000
G1 X27.950 Y45.179 Z-0.250 F600.000
G1 X27.950 Y45.179 Z8.000 F6000.000
G1 X27.950 Y45.179 Z8.000 F6000.000
G1 X27.950 Y45.179 Z-0.250 F600.000
G1 X27.950 Y45.179 Z-0.250 F600.000
G1 X28.134 Y45.255 Z-0.250 F600.000
G1 X28.240 Y45.266 Z-0.250 F600.000
G1 X30.228 Y45.266 Z-0.250 F600.000
G1 X30.429 Y45.226 Z-0.250 F600.000
G1 X30.518 Y45.179 Z-0.250 F600.000
G1 X30.518 Y45.179 Z8.000 F6000.000
G1 X30.595 Y45.116 Z8.000 F6000.000
G1 X30.595 Y45.116 Z-0.250 F600.000
G1 X30.595 Y45.116 Z-0.250 F600.000
G1 X30.658 Y45.038 Z-0.250 F600.000
G1 X30.658 Y45.038 Z8.000 F6000.000
G1 X30.658 Y45.038 Z8.000 F6000.000
G1 X30.658 Y45.038 Z-0.250 F600.000
G1 X30.658 Y45.038 Z-0.250 F600.000
G1 X30.735 Y44.854 Z-0.250 F600.000
G1 X30.745 Y44.749 Z-0.250 F600.000
G1 X30.745 Y42.761 Z-0.250 F600.000
G1 X30.706 Y42.560 Z-0.250 F600.000
G1 X30.658 Y42.471 Z-0.250 F600.000
G1 X30.658 Y42.471 Z8.000 F6000.000
G1 X30.595 Y42.394 Z8.000 F6000.000
G1 X30.595 Y42.394 Z-0.250 F600.000
G1 X30.595 Y42.394 Z-0.250 F600.000
G1 X30.518 Y42.330 Z-0.250 F600.000
G1 X30.518 Y42.330 Z8.000 F6000.000
G1 X30.518 Y42.330 Z8.000 F6000.000
G1 X30.518 Y42.330 Z-0.250 F600.000
G1 X30.518 Y42.330 Z-0.250 F600.000
G1 X30.334 Y42.254 Z-0.250 F600.000
G1 X30.228 Y42.244 Z-0.250 F600.000
G1 X29.669 Y42.244 Z-0.250 F600.000
G1 X29.669 Y42.244 Z8.000 F6000.000
G1 X29.589 Y42.215 Z8.000 F6000.000
G1 X29.589 Y42.215 Z-0.250 F600.000
G1 X29.589 Y42.215 Z-0.250 F600.000
G1 X29.580 Y42.208 Z-0.250 F600.000
G1 X29.580 Y42.208 Z8.000 F6000.000
G1 X29.542 Y42.118 Z8.000 F6000.000
G1 X29.542 Y42.118 Z-0.250 F600.000
G1 X29.542 Y42.118 Z-0.250 F600.000
G1 X29.542 Y42.117 Z-0.250 F600.000
G1 X29.542 Y42.117 Z8.000 F6000.000
G1 X29.542 Y42.117 Z8.000 F6000.000
G1 X29.542 Y42.117 Z-0.250 F600.000
G1 X29.542 Y42.117 Z-0.250 F600.000
G1 X29.545 Y40.323 Z-0.250 F600.000
G1 X29.545 Y38.214 Z-0.250 F600.000
G1 X29.545 Y38.214 Z8.000 F6000.000
G1 X29.574 Y38.134 Z8.000 F6000.000
G1 X29.574 Y38.134 Z-0.250 F600.000
G1 X29.574 Y38.134 Z-0.250 F600.000
G1 X29.581 Y38.125 Z-0.250 F600.000
G1 X29.581 Y38.125 Z8.000 F6000.000
G1 X29.671 Y38.087 Z8.000 F6000.000
G1 X29.671 Y38.087 Z-0.250 F600.000
G1 X29.671 Y38.087 Z-0.250 F600.000
G1 X29.672 Y38.087 Z-0.250 F600.000
G1 X29.672 Y38.087 Z8.000 F6000.000
G1 X29.672 Y38.087 Z8.000 F6000.000
G1 X29.672 Y38.087 Z-0.250 F600.000
G1 X29.672 Y38.087 Z-0.250 F600.000
G1 X30.050 Y38.124 Z-0.250 F600.000
G1 X32.331 Y40.405 Z-0.250 F600.000
G1 X32.331 Y40.405 Z8.000 F6000.000
G1 X32.340 Y40.415 Z8.000 F6000.000
G1 X32.340 Y40.415 Z-0.250 F600.000
G1 X32.340 Y40.415 Z-0.250 F600.000
G1 X32.375 Y40.458 Z-0.250 F600.000
G1 X32.375 Y40.458 Z8.000 F6000.000
G1 X32.418 Y40.493 Z8.000 F6000.000
G1 X32.418 Y40.493 Z-0.250 F600.000
G1 X32.418 Y40.493 Z-0.250 F600.000
G1 X32.567 Y40.615 Z-0.250 F600.000
G1 X32.785 Y40.732 Z-0.250 F600.000
G1 X33.022 Y40.804 Z-0.250 F600.000
G1 X33.213 Y40.822 Z-0.250 F600.000
G1 X33.213 Y40.822 Z8.000 F6000.000
G1 X33.213 Y40.822 Z8.000 F6000.000
G1 X33.213 Y40.822 Z-0.250 F600.000
G1 X33.213 Y40.822 Z-0.250 F600.000
G1 X33.269 Y40.828 Z-0.250 F600.000
G1 X33.269 Y40.828 Z8.000 F6000.000
G1 X33.335 Y40.822 Z8.000 F6000.000
G1 X33.335 Y40.822 Z-0.250 F600.000
G1 X33.335 Y40.822 Z-0.250 F600.000
G1 X33.337 Y40.822 Z-0.250 F600.000
G1 X33.337 Y40.822 Z8.000 F6000.000
G1 X33.337 Y40.822 Z8.000 F6000.000
G1 X33.337 Y40.822 Z-0.250 F600.000
G1 X33.337 Y40.822 Z-0.250 F600.000
G1 X47.530 Y40.822 Z-0.250 F600.000
G1 X47.530 Y40.822 Z8.000 F6000.000
G1 X47.542 Y40.822 Z8.000 F6000.000
G1 X47.542 Y40.822 Z-0.250 F600.000
G1 X47.542 Y40.822 Z-0.250 F600.000
G1 X47.598 Y40.828 Z-0.250 F600.000
G1 X47.598 Y40.828 Z8.000 F6000.000
G1 X47.654 Y40.822 Z8.000 F6000.000
G1 X47.654 Y40.822 Z-0.250 F600.000
G1 X47.654 Y40.822 Z-0.250 F600.000
G1 X47.654 Y40.822 Z-0.250 F600.000
G1 X47.654 Y40.822 Z8.000 F6000.000
G1 X47.654 Y40.822 Z8.000 F6000.000
G1 X47.654 Y40.822 Z-0.250 F600.000
G1 X47.654 Y40.822 Z-0.250 F600.000
G1 X47.845 Y40.804 Z-0.250 F600.000
G1 X48.082 Y40.732 Z-0.250 F600.000
G1 X48.300 Y40.615 Z-0.250 F600.000
G1 X48.536 Y40.405 Z-0.250 F600.000
G1 X52.871 Y36.123 Z-0.250 F600.000
G1 X53.300 Y36.123 Z-0.250 F600.000
G1 X53.300 Y36.123 Z8.000 F6000.000
G1 X53.305 Y36.123 Z8.000 F6000.000
G1 X53.305 Y36.123 Z-0.250 F600.000
G1 X53.305 Y36.123 Z-0.250 F600.000
G1 X53.311 Y36.123 Z-0.250 F600.000
G1 X53.311 Y36.123 Z8.000 F6000.000
G1 X53.397 Y36.168 Z8.000 F6000.000
G1 X53.397 Y36.168 Z-0.250 F600.000
G1 X53.397 Y36.168 Z-0.250 F600.000
G1 X53.398 Y36.169 Z-0.250 F600.000
G1 X53.398 Y36.169 Z8.000 F6000.000
G1 X53.436 Y36.216 Z8.000 F6000.000
G1 X53.436 Y36.216 Z-0.250 F600.000
G1 X53.436 Y36.216 Z-0.250 F600.000
G1 X53.513 Y36.279 Z-0.250 F600.000
G1 X53.513 Y36.279 Z8.000 F6000.000
G1 X53.513 Y36.279 Z8.000 F6000.000
G1 X53.513 Y36.279 Z-0.250 F600.000
G1 X53.513 Y36.279 Z-0.250 F600.000
G1 X53.697 Y36.355 Z-0.250 F600.000
G1 X53.803 Y36.366 Z-0.250 F600.000
G1 X57.751 Y36.366 Z-0.250 F600.000
G1 X57.927 Y36.334 Z-0.250 F600.000
G1 X58.258 Y35.954 Z-0.250 F600.000
G1 X58.268 Y35.849 Z-0.250 F600.000
G1 X58.268 Y33.881 Z-0.250 F600.000
G1 X58.229 Y33.680 Z-0.250 F600.000
G1 X58.181 Y33.591 Z-0.250 F600.000
G1 X58.181 Y33.591 Z8.000 F6000.000
G1 X58.118 Y33.514 Z8.000 F6000.000
G1 X58.118 Y33.514 Z-0.250 F600.000
G1 X58.118 Y33.514 Z-0.250 F600.000
G1 X58.041 Y33.450 Z-0.250 F600.000
G1 X58.041 Y33.450 Z8.000 F6000.000
G1 X58.041 Y33.450 Z8.000 F6000.000
G1 X58.041 Y33.450 Z-0.250 F600.000
G1 X58.041 Y33.450 Z-0.250 F600.000
G1 X57.857 Y33.374 Z-0.250 F600.000
G1 X57.751 Y33.364 Z-0.250 F600.000
G1 X53.803 Y33.364 Z-0.250 F600.000
G1 X53.602 Y33.403 Z-0.250 F600.000
G1 X53.513 Y33.450 Z-0.250 F600.000
G1 X53.513 Y33.450 Z8.000 F6000.000
G1 X53.513 Y33.450 Z8.000 F6000.000
G1 X53.513 Y33.450 Z-0.250 F600.000
G1 X53.513 Y33.450 Z-0.250 F600.000
G1 X53.436 Y33.514 Z-0.250 F600.000
G1 X53.436 Y33.514 Z8.000 F6000.000
G1 X53.394 Y33.564 Z8.000 F6000.000
G1 X53.394 Y33.564 Z-0.250 F600.000
G1 X53.394 Y33.564 Z-0.250 F600.000
G1 X53.390 Y33.569 Z-0.250 F600.000
G1 X53.390 Y33.569 Z8.000 F6000.000
G1 X53.301 Y33.607 Z8.000 F6000.000
G1 X53.301 Y33.607 Z-0.250 F600.000
G1 X53.301 Y33.607 Z-0.250 F600.000
G1 X53.300 Y33.607 Z-0.250 F600.000
G1 X53.300 Y33.607 Z8.000 F6000.000
G1 X53.300 Y33.607 Z8.000 F6000.000
G1 X53.300 Y33.607 Z-0.250 F600.000
G1 X53.300 Y33.607 Z-0.250 F600.000
G1 X52.297 Y33.601 Z-0.250 F600.000
G1 X52.050 Y33.625 Z-0.250 F600.000
G1 X51.813 Y33.697 Z-0.250 F600.000
G1 X51.595 Y33.814 Z-0.250 F600.000
G1 X51.446 Y33.936 Z-0.250 F600.000
G1 X51.446 Y33.936 Z8.000 F6000.000
G1 X51.446 Y33.936 Z8.000 F6000.000
G1 X51.446 Y33.936 Z-0.250 F600.000
G1 X51.446 Y33.936 Z-0.250 F600.000
G1 X51.403 Y33.971 Z-0.250 F600.000
G1 X51.403 Y33.971 Z8.000 F6000.000
G1 X51.361 Y34.022 Z8.000 F6000.000
G1 X51.361 Y34.022 Z-0.250 F600.000
G1 X51.361 Y34.022 Z-0.250 F600.000
G1 X51.359 Y34.023 Z-0.250 F600.000
G1 X51.359 Y34.023 Z8.000 F6000.000
G1 X51.359 Y34.023 Z8.000 F6000.000
G1 X51.359 Y34.023 Z-0.250 F600.000
G1 X51.359 Y34.023 Z-0.250 F600.000
G1 X47.024 Y38.306 Z-0.250 F600.000
G1 X46.556 Y38.306 Z-0.250 F600.000
G1 X46.556 Y38.306 Z8.000 F6000.000
G1 X46.496 Y38.291 Z8.000 F6000.000
G1 X46.496 Y38.291 Z-0.250 F600.000
G1 X46.496 Y38.291 Z-0.250 F600.000
G1 X46.491 Y38.288 Z-0.250 F600.000
G1 X46.491 Y38.288 Z8.000 F6000.000
G1 X46.433 Y38.210 Z8.000 F6000.000
G1 X46.433 Y38.210 Z-0.250 F600.000
G1 X46.433 Y38.210 Z-0.250 F600.000
G1 X46.431 Y38.204 Z-0.250 F600.000
G1 X46.431 Y38.204 Z8.000 F6000.000
G1 X46.449 Y38.109 Z8.000 F6000.000
G1 X46.449 Y38.109 Z-0.250 F600.000
G1 X46.449 Y38.109 Z-0.250 F600.000
G1 X46.453 Y38.105 Z-0.250 F600.000
G1 X46.453 Y38.105 Z8.000 F6000.000
G1 X46.519 Y38.057 Z8.000 F6000.000
G1 X46.519 Y38.057 Z-0.250 F600.000
G1 X46.519 Y38.057 Z-0.250 F600.000
G1 X46.541 Y38.050 Z-0.250 F600.000
G1 X46.541 Y38.050 Z8.000 F6000.000
G1 X46.541 Y38.050 Z8.000 F6000.000
G1 X46.541 Y38.050 Z-0.250 F600.000
G1 X46.541 Y38.050 Z-0.250 F600.000
G1 X46.630 Y38.003 Z-0.250 F600.000
G1 X46.630 Y38.003 Z8.000 F6000.000
G1 X46.707 Y37.940 Z8.000 F6000.000
G1 X46.707 Y37.940 Z-0.250 F600.000
G1 X46.707 Y37.940 Z-0.250 F600.000
G1 X46.770 Y37.862 Z-0.250 F600.000
G1 X46.770 Y37.862 Z8.000 F6000.000
G1 X46.770 Y37.862 Z8.000 F6000.000
G1 X46.770 Y37.862 Z-0.250 F600.000
G1 X46.770 Y37.862 Z-0.250 F600.000
G1 X46.847 Y37.678 Z-0.250 F600.000
G1 X46.857 Y37.573 Z-0.250 F600.000
G1 X46.857 Y36.085 Z-0.250 F600.000
G1 X46.847 Y35.979 Z-0.250 F600.000
G1 X46.818 Y35.884 Z-0.250 F600.000
G1 X46.770 Y35.795 Z-0.250 F600.000
G1 X46.770 Y35.795 Z8.000 F6000.000
G1 X46.707 Y35.718 Z8.000 F6000.000
G1 X46.707 Y35.718 Z-0.250 F600.000
G1 X46.707 Y35.718 Z-0.250 F600.000
G1 X46.630 Y35.654 Z-0.250 F600.000
G1 X46.630 Y35.654 Z8.000 F6000.000
G1 X46.630 Y35.654 Z8.000 F6000.000
G1 X46.630 Y35.654 Z-0.250 F600.000
G1 X46.630 Y35.654 Z-0.250 F600.000
G1 X46.446 Y35.578 Z-0.250 F600.000
G1 X46.340 Y35.568 Z-0.250 F600.000
G1 X39.315 Y35.571 Z-0.250 F600.000
G1 X35.398 Y35.534 Z-0.250 F600.000
G1 X30.208 Y30.335 Z-0.250 F600.000
G1 X30.016 Y30.178 Z-0.250 F600.000
G1 X29.798 Y30.061 Z-0.250 F600.000
G1 X29.561 Y29.989 Z-0.250 F600.000
G1 X29.370 Y29.970 Z-0.250 F600.000
G1 X29.370 Y29.970 Z8.000 F6000.000
G1 X29.370 Y29.970 Z8.000 F6000.000
G1 X29.370 Y29.970 Z-0.250 F600.000
G1 X29.370 Y29.970 Z-0.250 F600.000
G1 X29.314 Y29.965 Z-0.250 F600.000
G1 X29.314 Y29.965 Z8.000 F6000.000
G1 X29.248 Y29.971 Z8.000 F6000.000
G1 X29.248 Y29.971 Z-0.250 F600.000
G1 X29.248 Y29.971 Z-0.250 F600.000
G1 X29.246 Y29.971 Z-0.250 F600.000
G1 X29.246 Y29.971 Z8.000 F6000.000
G1 X29.246 Y29.971 Z8.000 F6000.000
G1 X29.246 Y29.971 Z-0.250 F600.000
G1 X29.246 Y29.971 Z-0.250 F600.000
G1 X19.590 Y29.956 Z-0.250 F600.000
G1 X19.370 Y29.838 Z-0.250 F600.000
G1 X19.088 Y29.753 Z-0.250 F600.000
G1 X18.868 Y29.731 Z-0.250 F600.000
G1 X16.740 Y29.731 Z-0.250 F600.000
G1 X16.520 Y29.753 Z-0.250 F600.000
G1 X16.238 Y29.838 Z-0.250 F600.000
G1 X15.978 Y29.977 Z-0.250 F600.000
G1 X15.750 Y30.164 Z-0.250 F600.000
G1 X15.562 Y30.393 Z-0.250 F600.000
G1 X15.423 Y30.653 Z-0.250 F600.000
G1 X15.338 Y30.935 Z-0.250 F600.000
G1 X15.309 Y31.229 Z-0.250 F600.000
G1 X15.338 Y31.523 Z-0.250 F600.000
G1 X15.423 Y31.805 Z-0.250 F600.000
G1 X15.562 Y32.065 Z-0.250 F600.000
G1 X15.750 Y32.293 Z-0.250 F600.000
G1 X15.978 Y32.480 Z-0.250 F600.000
G1 X16.238 Y32.620 Z-0.250 F600.000
G1 X16.520 Y32.705 Z-0.250 F600.000
G1 X16.740 Y32.727 Z-0.250 F600.000
G1 X18.868 Y32.727 Z-0.250 F600.000
G1 X19.088 Y32.705 Z-0.250 F600.000
G1 X19.370 Y32.620 Z-0.250 F600.000
G1 X19.650 Y32.487 Z-0.250 F600.000
G1 X28.830 Y32.524 Z-0.250 F600.000
G1 X28.907 Y32.601 Z-0.250 F600.000
G1 X28.907 Y32.601 Z8.000 F6000.000
G1 X28.942 Y32.666 Z8.000 F6000.000
G1 X28.942 Y32.666 Z-0.250 F600.000
G1 X28.942 Y32.666 Z-0.250 F600.000
G1 X28.943 Y32.678 Z-0.250 F600.000
G1 X28.943 Y32.678 Z8.000 F6000.000
G1 X28.916 Y32.770 Z8.000 F6000.000
G1 X28.916 Y32.770 Z-0.250 F600.000
G1 X28.916 Y32.770 Z-0.250 F600.000
G1 X28.908 Y32.780 Z-0.250 F600.000
G1 X28.908 Y32.780 Z8.000 F6000.000
G1 X28.819 Y32.818 Z8.000 F6000.000
G1 X28.819 Y32.818 Z-0.250 F600.000
G1 X28.819 Y32.818 Z-0.250 F600.000
G1 X28.817 Y32.818 Z-0.250 F600.000
G1 X28.817 Y32.818 Z8.000 F6000.000
G1 X28.817 Y32.818 Z8.000 F6000.000
G1 X28.817 Y32.818 Z-0.250 F600.000
G1 X28.817 Y32.818 Z-0.250 F600.000
G1 X27.540 Y32.818 Z-0.250 F600.000
G1 X27.339 Y32.857 Z-0.250 F600.000
G1 X27.250 Y32.904 Z-0.250 F600.000
G1 X27.250 Y32.904 Z8.000 F6000.000
G1 X27.173 Y32.968 Z8.000 F6000.000
G1 X27.173 Y32.968 Z-0.250 F600.000
G1 X27.173 Y32.968 Z-0.250 F600.000
G1 X27.110 Y33.045 Z-0.250 F600.000
G1 X27.110 Y33.045 Z8.000 F6000.000
G1 X27.339 Y32.857 Z8.000 F6000.000
G1 X27.339 Y32.857 Z-0.250 F600.000
G1 X27.339 Y32.857 Z-0.250 F600.000
G1 X27.434 Y32.828 Z-0.250 F600.000
G1 X27.434 Y32.828 Z8.000 F6000.000
G1 X28.830 Y32.524 Z8.000 F6000.000
G1 X28.830 Y32.524 Z-0.250 F600.000
G1 X28.830 Y32.524 Z-0.250 F600.000
G1 X28.830 Y32.524 Z-0.250 F600.000
G1 X28.830 Y32.524 Z8.000 F6000.000
G1 X29.870 Y30.725 Z8.000 F6000.000
G1 X29.870 Y30.725 Z-0.250 F600.000
G1 X29.870 Y30.725 Z-0.250 F600.000
G1 X29.847 Y30.696 Z-0.250 F600.000
G1 X29.847 Y30.696 Z8.000 F6000.000
G1 X30.243 Y30.378 Z8.000 F6000.000
G1 X30.243 Y30.378 Z-0.250 F600.000
G1 X30.243 Y30.378 Z-0.250 F600.000
G1 X30.208 Y30.335 Z-0.250 F600.000
G1 X30.208 Y30.335 Z8.000 F6000.000
G1 X29.351 Y30.479 Z8.000 F6000.000
G1 X29.351 Y30.479 Z-0.250 F600.000
G1 X29.351 Y30.479 Z-0.250 F600.000
G1 X29.351 Y30.479 Z-0.250 F600.000
G1 X29.351 Y30.479 Z8.000 F6000.000
G1 X30.571 Y36.079 Z8.000 F6000.000
G1 X30.571 Y36.079 Z-0.250 F600.000
G1 X30.571 Y36.079 Z-0.250 F600.000
G1 X30.571 Y36.079 Z-0.250 F600.000
G1 X30.571 Y36.079 Z8.000 F6000.000
G1 X31.067 Y36.296 Z8.000 F6000.000
G1 X31.067 Y36.296 Z-0.250 F600.000
G1 X31.067 Y36.296 Z-0.250 F600.000
G1 X31.090 Y36.325 Z-0.250 F600.000
G1 X31.090 Y36.325 Z8.000 F6000.000
G1 X30.050 Y38.124 Z8.000 F6000.000
G1 X30.050 Y38.124 Z-0.250 F600.000
G1 X30.050 Y38.124 Z-0.250 F600.000
G1 X30.050 Y38.124 Z-0.250 F600.000
G1 X30.050 Y38.124 Z8.000 F6000.000
G1 X29.545 Y40.323 Z8.000 F6000.000
G1 X29.545 Y40.323 Z-0.250 F600.000
G1 X29.545 Y40.323 Z-0.250 F600.000
G1 X29.543 Y40.348 Z-0.250 F600.000
G1 X29.543 Y40.348 Z8.000 F6000.000
G1 X27.534 Y40.329 Z8.000 F6000.000
G1 X27.534 Y40.329 Z-0.250 F600.000
G1 X27.534 Y40.329 Z-0.250 F600.000
G1 X27.534 Y40.329 Z-0.250 F600.000
G1 X27.534 Y40.329 Z8.000 F6000.000
G1 X27.026 Y40.358 Z8.000 F6000.000
G1 X27.026 Y40.358 Z-0.250 F600.000
G1 X27.026 Y40.358 Z-0.250 F600.000
G1 X27.026 Y40.360 Z-0.250 F600.000
G1 X27.026 Y40.360 Z8.000 F6000.000
G1 X27.025 Y42.749 Z8.000 F6000.000
G1 X27.025 Y42.749 Z-0.250 F600.000
G1 X27.025 Y42.749 Z-0.250 F600.000
G1 X27.020 Y42.805 Z-0.250 F600.000
G1 X27.020 Y42.805 Z8.000 F6000.000
G1 X27.530 Y42.805 Z8.000 F6000.000
G1 X27.530 Y42.805 Z-0.250 F600.000
G1 X27.530 Y42.805 Z-0.250 F600.000
G1 X27.534 Y42.768 Z-0.250 F600.000
G1 X27.534 Y42.768 Z8.000 F6000.000
G1 X27.647 Y43.205 Z8.000 F6000.000
G1 X27.647 Y43.205 Z-0.250 F600.000
G1 X27.647 Y43.205 Z-0.250 F600.000
G1 X27.657 Y43.224 Z-0.250 F600.000
G1 X27.657 Y43.224 Z8.000 F6000.000
G1 X27.722 Y43.303 Z8.000 F6000.000
G1 X27.722 Y43.303 Z-0.250 F600.000
G1 X27.722 Y43.303 Z-0.250 F600.000
G1 X27.728 Y43.309 Z-0.250 F600.000
G1 X27.728 Y43.309 Z8.000 F6000.000
G1 X27.723 Y44.075 Z8.000 F6000.000
G1 X27.723 Y44.075 Z-0.250 F600.000
G1 X27.723 Y44.075 Z-0.250 F600.000
G1 X27.723 Y44.075 Z-0.250 F600.000
G1 X27.723 Y44.075 Z8.000 F6000.000
G1 X27.733 Y44.854 Z8.000 F6000.000
G1 X27.733 Y44.854 Z-0.250 F600.000
G1 X27.733 Y44.854 Z-0.250 F600.000
G1 X27.762 Y44.950 Z-0.250 F600.000
G1 X27.762 Y44.950 Z8.000 F6000.000
G1 X28.039 Y45.226 Z8.000 F6000.000
G1 X28.039 Y45.226 Z-0.250 F600.000
G1 X28.039 Y45.226 Z-0.250 F600.000
G1 X28.134 Y45.255 Z-0.250 F600.000
G1 X28.134 Y45.255 Z8.000 F6000.000
G1 X30.334 Y45.256 Z8.000 F6000.000
G1 X30.334 Y45.256 Z-0.250 F600.000
G1 X30.334 Y45.256 Z-0.250 F600.000
G1 X30.429 Y45.226 Z-0.250 F600.000
G1 X30.429 Y45.226 Z8.000 F6000.000
G1 X30.706 Y44.950 Z8.000 F6000.000
G1 X30.706 Y44.950 Z-0.250 F600.000
G1 X30.706 Y44.950 Z-0.250 F600.000
G1 X30.735 Y44.854 Z-0.250 F600.000
G1 X30.735 Y44.854 Z8.000 F6000.000
G1 X30.735 Y42.655 Z8.000 F6000.000
G1 X30.735 Y42.655 Z-0.250 F600.000
G1 X30.735 Y42.655 Z-0.250 F600.000
G1 X30.706 Y42.560 Z-0.250 F600.000
G1 X30.706 Y42.560 Z8.000 F6000.000
G1 X30.429 Y42.283 Z8.000 F6000.000
G1 X30.429 Y42.283 Z-0.250 F600.000
G1 X30.429 Y42.283 Z-0.250 F600.000
G1 X30.334 Y42.254 Z-0.250 F600.000
G1 X30.334 Y42.254 Z8.000 F6000.000
G1 X32.418 Y40.493 Z8.000 F6000.000
G1 X32.418 Y40.493 Z-0.250 F600.000
G1 X32.418 Y40.493 Z-0.250 F600.000
G1 X32.418 Y40.493 Z-0.250 F600.000
G1 X32.418 Y40.493 Z8.000 F6000.000
G1 X32.736 Y40.097 Z8.000 F6000.000
G1 X32.736 Y40.097 Z-0.250 F600.000
G1 X32.736 Y40.097 Z-0.250 F600.000
G1 X32.713 Y40.068 Z-0.250 F600.000
G1 X32.713 Y40.068 Z8.000 F6000.000
G1 X33.232 Y40.314 Z8.000 F6000.000
G1 X33.232 Y40.314 Z-0.250 F600.000
G1 X33.232 Y40.314 Z-0.250 F600.000
G1 X33.232 Y40.314 Z-0.250 F600.000
G1 X33.232 Y40.314 Z8.000 F6000.000
G1 X34.495 Y37.455 Z8.000 F6000.000
G1 X34.495 Y37.455 Z-0.250 F600.000
G1 X34.495 Y37.455 Z-0.250 F600.000
G1 X34.495 Y37.455 Z-0.250 F600.000
G1 X34.495 Y37.455 Z8.000 F6000.000
G1 X34.381 Y37.362 Z8.000 F6000.000
G1 X34.381 Y37.362 Z-0.250 F600.000
G1 X34.381 Y37.362 Z-0.250 F600.000
G1 X34.358 Y37.333 Z-0.250 F600.000
G1 X34.358 Y37.333 Z8.000 F6000.000
G1 X34.767 Y37.568 Z8.000 F6000.000
G1 X34.767 Y37.568 Z-0.250 F600.000
G1 X34.767 Y37.568 Z-0.250 F600.000
G1 X34.877 Y37.579 Z-0.250 F600.000
G1 X46.346 Y37.579 Z-0.250 F600.000
G1 X46.346 Y36.079 Z-0.250 F600.000
G1 X35.225 Y36.079 Z-0.250 F600.000
G1 X29.870 Y30.725 Z-0.250 F600.000
G1 X29.733 Y30.602 Z-0.250 F600.000
G1 X29.602 Y30.533 Z-0.250 F600.000
G1 X29.461 Y30.490 Z-0.250 F600.000
G1 X29.351 Y30.479 Z-0.250 F600.000
G1 X19.441 Y30.479 Z-0.250 F600.000
G1 X19.347 Y30.402 Z-0.250 F600.000
G1 X19.175 Y30.310 Z-0.250 F600.000
G1 X18.988 Y30.253 Z-0.250 F600.000
G1 X18.843 Y30.239 Z-0.250 F600.000
G1 X16.765 Y30.239 Z-0.250 F600.000
G1 X16.620 Y30.253 Z-0.250 F600.000
G1 X16.433 Y30.310 Z-0.250 F600.000
G1 X16.261 Y30.402 Z-0.250 F600.000
G1 X16.111 Y30.525 Z-0.250 F600.000
G1 X15.987 Y30.676 Z-0.250 F600.000
G1 X15.895 Y30.848 Z-0.250 F600.000
G1 X15.838 Y31.035 Z-0.250 F600.000
G1 X15.819 Y31.229 Z-0.250 F600.000
G1 X15.838 Y31.423 Z-0.250 F600.000
G1 X15.895 Y31.610 Z-0.250 F600.000
G1 X15.987 Y31.782 Z-0.250 F600.000
G1 X16.111 Y31.932 Z-0.250 F600.000
G1 X16.261 Y32.056 Z-0.250 F600.000
G1 X16.433 Y32.148 Z-0.250 F600.000
G1 X16.620 Y32.205 Z-0.250 F600.000
G1 X16.765 Y32.219 Z-0.250 F600.000
G1 X18.843 Y32.219 Z-0.250 F600.000
G1 X18.988 Y32.205 Z-0.250 F600.000
G1 X19.175 Y32.148 Z-0.250 F600.000
G1 X19.347 Y32.056 Z-0.250 F600.000
G1 X19.441 Y31.979 Z-0.250 F600.000
G1 X29.003 Y31.979 Z-0.250 F600.000
G1 X34.358 Y37.333 Z-0.250 F600.000
G1 X34.495 Y37.455 Z-0.250 F600.000
G1 X34.626 Y37.525 Z-0.250 F600.000
G1 X34.767 Y37.568 Z-0.250 F600.000
G1 X34.767 Y37.568 Z8.000 F6000.000
G1 X34.877 Y37.579 Z8.000 F6000.000
G1 X34.877 Y37.579 Z-0.250 F600.000
G1 X34.877 Y37.579 Z-0.250 F600.000
G1 X34.877 Y37.579 Z-0.250 F600.000
G1 X34.877 Y37.579 Z8.000 F6000.000
G1 X35.398 Y35.534 Z8.000 F6000.000
G1 X35.398 Y35.534 Z-0.250 F600.000
G1 X35.398 Y35.534 Z-0.250 F600.000
G1 X35.398 Y35.534 Z-0.250 F600.000
G1 X35.398 Y35.534 Z8.000 F6000.000
G1 X39.315 Y35.571 Z8.000 F6000.000
G1 X39.315 Y35.571 Z-0.250 F600.000
G1 X39.315 Y35.571 Z-0.250 F600.000
G1 X39.317 Y35.571 Z-0.250 F600.000
G1 X39.317 Y35.571 Z8.000 F6000.000
G1 X46.446 Y35.578 Z8.000 F6000.000
G1 X46.446 Y35.578 Z-0.250 F600.000
G1 X46.446 Y35.578 Z-0.250 F600.000
G1 X46.541 Y35.607 Z-0.250 F600.000
G1 X46.541 Y35.607 Z8.000 F6000.000
G1 X46.847 Y37.678 Z8.000 F6000.000
G1 X46.847 Y37.678 Z-0.250 F600.000
G1 X46.847 Y37.678 Z-0.250 F600.000
G1 X46.818 Y37.774 Z-0.250 F600.000
G1 X46.818 Y37.774 Z8.000 F6000.000
G1 X47.024 Y38.306 Z8.000 F6000.000
G1 X47.024 Y38.306 Z-0.250 F600.000
G1 X47.024 Y38.306 Z-0.250 F600.000
G1 X47.025 Y38.306 Z-0.250 F600.000
G1 X47.025 Y38.306 Z8.000 F6000.000
G1 X47.561 Y40.314 Z8.000 F6000.000
G1 X47.561 Y40.314 Z-0.250 F600.000
G1 X47.561 Y40.314 Z-0.250 F600.000
G1 X47.598 Y40.317 Z-0.250 F600.000
G1 X47.598 Y40.317 Z8.000 F6000.000
G1 X48.131 Y40.097 Z8.000 F6000.000
G1 X48.131 Y40.097 Z-0.250 F600.000
G1 X48.131 Y40.097 Z-0.250 F600.000
G1 X48.154 Y40.068 Z-0.250 F600.000
G1 X48.154 Y40.068 Z8.000 F6000.000
G1 X48.534 Y40.407 Z8.000 F6000.000
G1 X48.534 Y40.407 Z-0.250 F600.000
G1 X48.534 Y40.407 Z-0.250 F600.000
G1 X48.536 Y40.405 Z-0.250 F600.000
G1 X48.536 Y40.405 Z8.000 F6000.000
G1 X45.519 Y42.966 Z8.000 F6000.000
G1 X45.519 Y42.966 Z-0.250 F600.000
G1 X45.519 Y42.966 Z-0.250 F600.000
G1 X45.537 Y43.005 Z-0.250 F600.000
G1 X45.537 Y43.005 Z8.000 F6000.000
G1 X45.119 Y42.535 Z8.000 F6000.000
G1 X45.119 Y42.535 Z-0.250 F600.000
G1 X45.119 Y42.535 Z-0.250 F600.000
G1 X44.864 Y42.385 Z-0.250 F600.000
G1 X44.622 Y42.302 Z-0.250 F600.000
G1 X44.488 Y42.364 Z-0.250 F600.000
G1 X44.488 Y42.787 Z-0.250 F600.000
G1 X44.619 Y42.827 Z-0.250 F600.000
G1 X44.792 Y42.919 Z-0.250 F600.000
G1 X44.896 Y43.005 Z-0.250 F600.000
G1 X45.519 Y42.966 Z-0.250 F600.000
G1 X45.340 Y42.731 Z-0.250 F600.000
G1 X45.119 Y42.535 Z-0.250 F600.000
G1 X45.119 Y42.535 Z8.000 F6000.000
G1 X45.537 Y44.505 Z8.000 F6000.000
G1 X45.537 Y44.505 Z-0.250 F600.000
G1 X45.537 Y44.505 Z-0.250 F600.000
G1 X44.896 Y44.505 Z-0.250 F600.000
G1 X44.792 Y44.590 Z-0.250 F600.000
G1 X44.619 Y44.683 Z-0.250 F600.000
G1 X44.488 Y44.723 Z-0.250 F600.000
G1 X44.488 Y45.145 Z-0.250 F600.000
G1 X44.622 Y45.208 Z-0.250 F600.000
G1 X44.864 Y45.124 Z-0.250 F600.000
G1 X45.119 Y44.975 Z-0.250 F600.000
G1 X45.340 Y44.779 Z-0.250 F600.000
G1 X45.519 Y44.543 Z-0.250 F600.000
G1 X45.519 Y44.543 Z8.000 F6000.000
G1 X45.519 Y44.543 Z8.000 F6000.000
G1 X45.519 Y44.543 Z-0.250 F600.000
G1 X45.519 Y44.543 Z-0.250 F600.000
G1 X45.537 Y44.505 Z-0.250 F600.000
G1 X45.537 Y44.505 Z8.000 F6000.000
G1 X43.523 Y44.465 Z8.000 F6000.000
G1 X43.523 Y44.465 Z-0.250 F600.000
G1 X43.523 Y44.465 Z-0.250 F600.000
G1 X43.399 Y44.313 Z-0.250 F600.000
G1 X43.306 Y44.139 Z-0.250 F600.000
G1 X43.266 Y44.009 Z-0.250 F600.000
G1 X42.844 Y44.009 Z-0.250 F600.000
G1 X42.780 Y44.145 Z-0.250 F600.000
G1 X42.819 Y44.275 Z-0.250 F600.000
G1 X42.949 Y44.543 Z-0.250 F600.000
G1 X43.128 Y44.779 Z-0.250 F600.000
G1 X43.349 Y44.975 Z-0.250 F600.000
G1 X43.604 Y45.124 Z-0.250 F600.000
G1 X43.846 Y45.208 Z-0.250 F600.000
G1 X43.980 Y45.145 Z-0.250 F600.000
G1 X43.980 Y44.723 Z-0.250 F600.000
G1 X43.849 Y44.683 Z-0.250 F600.000
G1 X43.676 Y44.590 Z-0.250 F600.000
G1 X43.523 Y44.465 Z-0.250 F600.000
G1 X43.523 Y44.465 Z8.000 F6000.000
G1 X42.949 Y42.966 Z8.000 F6000.000
G1 X42.949 Y42.966 Z-0.250 F600.000
G1 X42.949 Y42.966 Z-0.250 F600.000
G1 X42.819 Y43.234 Z-0.250 F600.000
G1 X42.780 Y43.365 Z-0.250 F600.000
G1 X42.844 Y43.501 Z-0.250 F600.000
G1 X43.266 Y43.501 Z-0.250 F600.000
G1 X43.306 Y43.370 Z-0.250 F600.000
G1 X43.399 Y43.197 Z-0.250 F600.000
G1 X43.523 Y43.044 Z-0.250 F600.000
G1 X43.676 Y42.919 Z-0.250 F600.000
G1 X43.849 Y42.827 Z-0.250 F600.000
G1 X43.980 Y42.787 Z-0.250 F600.000
G1 X43.980 Y42.364 Z-0.250 F600.000
G1 X43.846 Y42.302 Z-0.250 F600.000
G1 X43.604 Y42.385 Z-0.250 F600.000
G1 X43.349 Y42.535 Z-0.250 F600.000
G1 X43.128 Y42.731 Z-0.250 F600.000
G1 X42.949 Y42.966 Z-0.250 F600.000
G1 X42.949 Y42.966 Z8.000 F6000.000
G1 X52.870 Y36.123 Z8.000 F6000.000
G1 X52.870 Y36.123 Z-0.250 F600.000
G1 X52.870 Y36.123 Z-0.250 F600.000
G1 X52.871 Y36.123 Z-0.250 F600.000
G1 X52.871 Y36.123 Z8.000 F6000.000
G1 X53.602 Y36.326 Z8.000 F6000.000
G1 X53.602 Y36.326 Z-0.250 F600.000
G1 X53.602 Y36.326 Z-0.250 F600.000
G1 X53.697 Y36.355 Z-0.250 F600.000
G1 X53.697 Y36.355 Z8.000 F6000.000
G1 X53.797 Y35.855 Z8.000 F6000.000
G1 X53.797 Y35.855 Z-0.250 F600.000
G1 X53.797 Y35.855 Z-0.250 F600.000
G1 X57.757 Y35.855 Z-0.250 F600.000
G1 X57.757 Y33.875 Z-0.250 F600.000
G1 X53.797 Y33.875 Z-0.250 F600.000
G1 X53.797 Y34.115 Z-0.250 F600.000
G1 X52.334 Y34.115 Z-0.250 F600.000
G1 X52.150 Y34.126 Z-0.250 F600.000
G1 X52.009 Y34.169 Z-0.250 F600.000
G1 X51.878 Y34.238 Z-0.250 F600.000
G1 X51.764 Y34.332 Z-0.250 F600.000
G1 X47.287 Y38.814 Z-0.250 F600.000
G1 X33.580 Y38.814 Z-0.250 F600.000
G1 X31.090 Y36.325 Z-0.250 F600.000
G1 X30.953 Y36.202 Z-0.250 F600.000
G1 X30.822 Y36.133 Z-0.250 F600.000
G1 X30.681 Y36.090 Z-0.250 F600.000
G1 X30.571 Y36.079 Z-0.250 F600.000
G1 X29.034 Y36.079 Z-0.250 F600.000
G1 X29.034 Y33.329 Z-0.250 F600.000
G1 X27.534 Y33.329 Z-0.250 F600.000
G1 X27.534 Y36.792 Z-0.250 F600.000
G1 X27.534 Y40.329 Z-0.250 F600.000
G1 X27.534 Y42.768 Z-0.250 F600.000
G1 X27.545 Y42.952 Z-0.250 F600.000
G1 X27.588 Y43.093 Z-0.250 F600.000
G1 X27.647 Y43.205 Z-0.250 F600.000
G1 X27.722 Y43.303 Z-0.250 F600.000
G1 X28.234 Y43.816 Z-0.250 F600.000
G1 X28.234 Y44.755 Z-0.250 F600.000
G1 X30.234 Y44.755 Z-0.250 F600.000
G1 X30.234 Y42.755 Z-0.250 F600.000
G1 X29.295 Y42.755 Z-0.250 F600.000
G1 X29.034 Y42.494 Z-0.250 F600.000
G1 X29.034 Y37.579 Z-0.250 F600.000
G1 X30.223 Y37.579 Z-0.250 F600.000
G1 X32.713 Y40.068 Z-0.250 F600.000
G1 X32.850 Y40.190 Z-0.250 F600.000
G1 X32.981 Y40.260 Z-0.250 F600.000
G1 X33.122 Y40.303 Z-0.250 F600.000
G1 X33.232 Y40.314 Z-0.250 F600.000
G1 X47.561 Y40.314 Z-0.250 F600.000
G1 X47.745 Y40.303 Z-0.250 F600.000
G1 X47.886 Y40.260 Z-0.250 F600.000
G1 X48.017 Y40.190 Z-0.250 F600.000
G1 X48.131 Y40.097 Z-0.250 F600.000
G1 X52.608 Y35.615 Z-0.250 F600.000
G1 X53.797 Y35.615 Z-0.250 F600.000
G1 X53.797 Y35.855 Z-0.250 F600.000
G1 X53.797 Y35.855 Z8.000 F6000.000
G1 X52.334 Y34.115 Z8.000 F6000.000
G1 X52.334 Y34.115 Z-0.250 F600.000
G1 X52.334 Y34.115 Z-0.250 F600.000
G1 X52.297 Y34.111 Z-0.250 F600.000
G1 X52.297 Y34.111 Z8.000 F6000.000
G1 X52.353 Y33.606 Z8.000 F6000.000
G1 X52.353 Y33.606 Z-0.250 F600.000
G1 X52.353 Y33.606 Z-0.250 F600.000
G1 X52.297 Y33.601 Z-0.250 F600.000
G1 X52.297 Y33.601 Z8.000 F6000.000
G1 X51.764 Y34.332 Z8.000 F6000.000
G1 X51.764 Y34.332 Z-0.250 F600.000
G1 X51.764 Y34.332 Z-0.250 F600.000
G1 X51.741 Y34.361 Z-0.250 F600.000
G1 X51.741 Y34.361 Z8.000 F6000.000
G1 X53.602 Y33.403 Z8.000 F6000.000
G1 X53.602 Y33.403 Z-0.250 F600.000
G1 X53.602 Y33.403 Z-0.250 F600.000
G1 X53.697 Y33.374 Z-0.250 F600.000
G1 X53.697 Y33.374 Z8.000 F6000.000
G1 X54.140 Y30.615 Z8.000 F6000.000
G1 X54.140 Y30.615 Z-0.250 F600.000
G1 X54.140 Y30.615 Z-0.250 F600.000
G1 X53.487 Y30.615 Z-0.250 F600.000
G1 X53.645 Y30.841 Z-0.250 F600.000
G1 X53.858 Y31.045 Z-0.250 F600.000
G1 X54.106 Y31.204 Z-0.250 F600.000
G1 X54.380 Y31.311 Z-0.250 F600.000
G1 X54.671 Y31.363 Z-0.250 F600.000
G1 X55.523 Y31.363 Z-0.250 F600.000
G1 X55.523 Y30.855 Z-0.250 F600.000
G1 X54.738 Y30.855 Z-0.250 F600.000
G1 X54.593 Y30.841 Z-0.250 F600.000
G1 X54.406 Y30.784 Z-0.250 F600.000
G1 X54.234 Y30.692 Z-0.250 F600.000
G1 X54.140 Y30.615 Z-0.250 F600.000
G1 X54.140 Y30.615 Z8.000 F6000.000
G1 X53.645 Y28.889 Z8.000 F6000.000
G1 X53.645 Y28.889 Z-0.250 F600.000
G1 X53.645 Y28.889 Z-0.250 F600.000
G1 X53.487 Y29.115 Z-0.250 F600.000
G1 X54.140 Y29.115 Z-0.250 F600.000
G1 X54.234 Y29.038 Z-0.250 F600.000
G1 X54.406 Y28.946 Z-0.250 F600.000
G1 X54.593 Y28.889 Z-0.250 F600.000
G1 X54.738 Y28.875 Z-0.250 F600.000
G1 X55.523 Y28.875 Z-0.250 F600.000
G1 X55.523 Y28.367 Z-0.250 F600.000
G1 X54.671 Y28.367 Z-0.250 F600.000
G1 X54.380 Y28.419 Z-0.250 F600.000
G1 X54.106 Y28.526 Z-0.250 F600.000
G1 X53.858 Y28.685 Z-0.250 F600.000
G1 X53.645 Y28.889 Z-0.250 F600.000
G1 X53.645 Y28.889 Z8.000 F6000.000
G1 X53.991 Y26.138 Z8.000 F6000.000
G1 X53.991 Y26.138 Z-0.250 F600.000
G1 X53.991 Y26.138 Z-0.250 F600.000
G1 X53.989 Y26.137 Z-0.250 F600.000
G1 X53.989 Y26.137 Z8.000 F6000.000
G1 X53.933 Y23.607 Z8.000 F6000.000
G1 X53.933 Y23.607 Z-0.250 F600.000
G1 X53.933 Y23.607 Z-0.250 F600.000
G1 X53.931 Y23.607 Z-0.250 F600.000
G1 X53.931 Y23.607 Z8.000 F6000.000
G1 X57.174 Y28.419 Z8.000 F6000.000
G1 X57.174 Y28.419 Z-0.250 F600.000
G1 X57.174 Y28.419 Z-0.250 F600.000
G1 X56.883 Y28.367 Z-0.250 F600.000
G1 X56.031 Y28.367 Z-0.250 F600.000
G1 X56.031 Y28.875 Z-0.250 F600.000
G1 X56.816 Y28.875 Z-0.250 F600.000
G1 X56.961 Y28.889 Z-0.250 F600.000
G1 X57.148 Y28.946 Z-0.250 F600.000
G1 X57.320 Y29.038 Z-0.250 F600.000
G1 X57.470 Y29.161 Z-0.250 F600.000
G1 X57.594 Y29.312 Z-0.250 F600.000
G1 X57.686 Y29.484 Z-0.250 F600.000
G1 X57.724 Y29.611 Z-0.250 F600.000
G1 X58.147 Y29.611 Z-0.250 F600.000
G1 X58.196 Y29.401 Z-0.250 F600.000
G1 X58.077 Y29.130 Z-0.250 F600.000
G1 X57.909 Y28.889 Z-0.250 F600.000
G1 X57.696 Y28.685 Z-0.250 F600.000
G1 X57.448 Y28.526 Z-0.250 F600.000
G1 X57.174 Y28.419 Z-0.250 F600.000
G1 X57.174 Y28.419 Z8.000 F6000.000
G1 X58.196 Y29.401 Z8.000 F6000.000
G1 X58.196 Y29.401 Z-0.250 F600.000
G1 X58.196 Y29.401 Z-0.250 F600.000
G1 X58.213 Y29.472 Z-0.250 F600.000
G1 X58.213 Y29.472 Z8.000 F6000.000
G1 X58.147 Y30.119 Z8.000 F6000.000
G1 X58.147 Y30.119 Z-0.250 F600.000
G1 X58.147 Y30.119 Z-0.250 F600.000
G1 X58.082 Y30.119 Z-0.250 F600.000
G1 X58.082 Y30.119 Z8.000 F6000.000
G1 X58.082 Y30.119 Z8.000 F6000.000
G1 X58.082 Y30.119 Z-0.250 F600.000
G1 X58.082 Y30.119 Z-0.250 F600.000
G1 X58.207 Y30.244 Z-0.250 F600.000
G1 X58.147 Y30.119 Z-0.250 F600.000
G1 X58.147 Y30.119 Z8.000 F6000.000
G1 X56.031 Y30.855 Z8.000 F6000.000
G1 X56.031 Y30.855 Z-0.250 F600.000
G1 X56.031 Y30.855 Z-0.250 F600.000
G1 X56.031 Y31.363 Z-0.250 F600.000
G1 X56.883 Y31.363 Z-0.250 F600.000
G1 X57.156 Y31.314 Z-0.250 F600.000
G1 X56.696 Y30.855 Z-0.250 F600.000
G1 X56.031 Y30.855 Z-0.250 F600.000
G1 X56.031 Y30.855 Z8.000 F6000.000
G1 X57.857 Y33.374 Z8.000 F6000.000
G1 X57.857 Y33.374 Z-0.250 F600.000
G1 X57.857 Y33.374 Z-0.250 F600.000
G1 X57.952 Y33.403 Z-0.250 F600.000
G1 X57.952 Y33.403 Z8.000 F6000.000
G1 X58.229 Y33.680 Z8.000 F6000.000
G1 X58.229 Y33.680 Z-0.250 F600.000
G1 X58.229 Y33.680 Z-0.250 F600.000
G1 X58.258 Y33.775 Z-0.250 F600.000
G1 X58.258 Y33.775 Z8.000 F6000.000
G1 X58.258 Y35.954 Z8.000 F6000.000
G1 X58.258 Y35.954 Z-0.250 F600.000
G1 X58.258 Y35.954 Z-0.250 F600.000
G1 X58.236 Y36.025 Z-0.250 F600.000
G1 X58.236 Y36.025 Z8.000 F6000.000
G1 X57.927 Y36.334 Z8.000 F6000.000
G1 X57.927 Y36.334 Z-0.250 F600.000
G1 X57.927 Y36.334 Z-0.250 F600.000
G1 X57.857 Y36.355 Z-0.250 F600.000
G1 X57.857 Y36.355 Z8.000 F6000.000
G1 X45.972 Y26.123 Z8.000 F6000.000
G1 X45.972 Y26.123 Z-0.250 F600.000
G1 X45.972 Y26.123 Z-0.250 F600.000
G1 X45.970 Y26.123 Z-0.250 F600.000
G1 X45.970 Y26.123 Z8.000 F6000.000
G1 X45.972 Y26.123 Z8.000 F6000.000
G1 X45.972 Y26.123 Z-0.250 F600.000
G1 X45.972 Y26.123 Z-0.250 F600.000
G1 X53.991 Y26.138 Z-0.250 F600.000
G1 X54.211 Y26.256 Z-0.250 F600.000
G1 X54.493 Y26.341 Z-0.250 F600.000
G1 X54.713 Y26.363 Z-0.250 F600.000
G1 X56.841 Y26.363 Z-0.250 F600.000
G1 X57.061 Y26.341 Z-0.250 F600.000
G1 X57.343 Y26.256 Z-0.250 F600.000
G1 X57.603 Y26.116 Z-0.250 F600.000
G1 X57.831 Y25.929 Z-0.250 F600.000
G1 X58.019 Y25.701 Z-0.250 F600.000
G1 X58.158 Y25.441 Z-0.250 F600.000
G1 X58.243 Y25.159 Z-0.250 F600.000
G1 X58.272 Y24.865 Z-0.250 F600.000
G1 X58.243 Y24.571 Z-0.250 F600.000
G1 X58.158 Y24.289 Z-0.250 F600.000
G1 X58.019 Y24.029 Z-0.250 F600.000
G1 X57.831 Y23.800 Z-0.250 F600.000
G1 X57.603 Y23.613 Z-0.250 F600.000
G1 X57.343 Y23.474 Z-0.250 F600.000
G1 X57.061 Y23.389 Z-0.250 F600.000
G1 X56.841 Y23.367 Z-0.250 F600.000
G1 X54.713 Y23.367 Z-0.250 F600.000
G1 X54.493 Y23.389 Z-0.250 F600.000
G1 X54.211 Y23.474 Z-0.250 F600.000
G1 X53.931 Y23.607 Z-0.250 F600.000
G1 X46.388 Y23.570 Z-0.250 F600.000
G1 X44.104 Y21.233 Z-0.250 F600.000
G1 X44.104 Y20.945 Z-0.250 F600.000
G1 X44.104 Y20.945 Z8.000 F6000.000
G1 X44.133 Y20.865 Z8.000 F6000.000
G1 X44.133 Y20.865 Z-0.250 F600.000
G1 X44.133 Y20.865 Z-0.250 F600.000
G1 X44.140 Y20.856 Z-0.250 F600.000
G1 X44.140 Y20.856 Z8.000 F6000.000
G1 X44.230 Y20.818 Z8.000 F6000.000
G1 X44.230 Y20.818 Z-0.250 F600.000
G1 X44.230 Y20.818 Z-0.250 F600.000
G1 X44.231 Y20.818 Z-0.250 F600.000
G1 X44.231 Y20.818 Z8.000 F6000.000
G1 X44.231 Y20.818 Z8.000 F6000.000
G1 X44.231 Y20.818 Z-0.250 F600.000
G1 X44.231 Y20.818 Z-0.250 F600.000
G1 X46.340 Y20.818 Z-0.250 F600.000
G1 X46.541 Y20.778 Z-0.250 F600.000
G1 X46.630 Y20.731 Z-0.250 F600.000
G1 X46.630 Y20.731 Z8.000 F6000.000
G1 X46.707 Y20.668 Z8.000 F6000.000
G1 X46.707 Y20.668 Z-0.250 F600.000
G1 X46.707 Y20.668 Z-0.250 F600.000
G1 X46.770 Y20.590 Z-0.250 F600.000
G1 X46.770 Y20.590 Z8.000 F6000.000
G1 X46.770 Y20.590 Z8.000 F6000.000
G1 X46.770 Y20.590 Z-0.250 F600.000
G1 X46.770 Y20.590 Z-0.250 F600.000
G1 X46.847 Y20.406 Z-0.250 F600.000
G1 X46.857 Y20.301 Z-0.250 F600.000
G1 X46.857 Y18.813 Z-0.250 F600.000
G1 X46.818 Y18.612 Z-0.250 F600.000
G1 X46.770 Y18.523 Z-0.250 F600.000
G1 X46.770 Y18.523 Z8.000 F6000.000
G1 X46.707 Y18.446 Z8.000 F6000.000
G1 X46.707 Y18.446 Z-0.250 F600.000
G1 X46.707 Y18.446 Z-0.250 F600.000
G1 X46.630 Y18.382 Z-0.250 F600.000
G1 X46.630 Y18.382 Z8.000 F6000.000
G1 X46.630 Y18.382 Z8.000 F6000.000
G1 X46.630 Y18.382 Z-0.250 F600.000
G1 X46.630 Y18.382 Z-0.250 F600.000
G1 X46.446 Y18.306 Z-0.250 F600.000
G1 X46.340 Y18.296 Z-0.250 F600.000
G1 X44.231 Y18.296 Z-0.250 F600.000
G1 X44.231 Y18.296 Z8.000 F6000.000
G1 X44.151 Y18.267 Z8.000 F6000.000
G1 X44.151 Y18.267 Z-0.250 F600.000
G1 X44.151 Y18.267 Z-0.250 F600.000
G1 X44.142 Y18.260 Z-0.250 F600.000
G1 X44.142 Y18.260 Z8.000 F6000.000
G1 X44.104 Y18.170 Z8.000 F6000.000
G1 X44.104 Y18.170 Z-0.250 F600.000
G1 X44.104 Y18.170 Z-0.250 F600.000
G1 X44.104 Y18.169 Z-0.250 F600.000
G1 X44.104 Y18.169 Z8.000 F6000.000
G1 X44.104 Y18.169 Z8.000 F6000.000
G1 X44.104 Y18.169 Z-0.250 F600.000
G1 X44.104 Y18.169 Z-0.250 F600.000
G1 X44.104 Y15.104 Z-0.250 F600.000
G1 X44.104 Y15.104 Z8.000 F6000.000
G1 X44.108 Y15.074 Z8.000 F6000.000
G1 X44.108 Y15.074 Z-0.250 F600.000
G1 X44.108 Y15.074 Z-0.250 F600.000
G1 X44.109 Y15.068 Z-0.250 F600.000
G1 X44.109 Y15.068 Z8.000 F6000.000
G1 X44.170 Y14.993 Z8.000 F6000.000
G1 X44.170 Y14.993 Z-0.250 F600.000
G1 X44.170 Y14.993 Z-0.250 F600.000
G1 X44.171 Y14.992 Z-0.250 F600.000
G1 X44.171 Y14.992 Z8.000 F6000.000
G1 X44.171 Y14.992 Z8.000 F6000.000
G1 X44.171 Y14.992 Z-0.250 F600.000
G1 X44.171 Y14.992 Z-0.250 F600.000
G1 X44.314 Y14.916 Z-0.250 F600.000
G1 X44.543 Y14.727 Z-0.250 F600.000
G1 X44.732 Y14.498 Z-0.250 F600.000
G1 X44.872 Y14.236 Z-0.250 F600.000
G1 X44.958 Y13.951 Z-0.250 F600.000
G1 X44.987 Y13.656 Z-0.250 F600.000
G1 X44.958 Y13.360 Z-0.250 F600.000
G1 X44.872 Y13.076 Z-0.250 F600.000
G1 X44.732 Y12.814 Z-0.250 F600.000
G1 X44.543 Y12.584 Z-0.250 F600.000
G1 X44.314 Y12.396 Z-0.250 F600.000
G1 X44.052 Y12.256 Z-0.250 F600.000
G1 X43.768 Y12.170 Z-0.250 F600.000
G1 X43.546 Y12.148 Z-0.250 F600.000
G1 X43.398 Y12.148 Z-0.250 F600.000
G1 X43.176 Y12.170 Z-0.250 F600.000
G1 X42.892 Y12.256 Z-0.250 F600.000
G1 X42.630 Y12.396 Z-0.250 F600.000
G1 X42.401 Y12.584 Z-0.250 F600.000
G1 X42.212 Y12.814 Z-0.250 F600.000
G1 X42.072 Y13.076 Z-0.250 F600.000
G1 X41.997 Y13.324 Z-0.250 F600.000
G1 X41.997 Y13.324 Z8.000 F6000.000
G1 X41.987 Y13.346 Z8.000 F6000.000
G1 X41.987 Y13.346 Z-0.250 F600.000
G1 X41.987 Y13.346 Z-0.250 F600.000
G1 X41.981 Y13.356 Z-0.250 F600.000
G1 X41.981 Y13.356 Z8.000 F6000.000
G1 X41.917 Y13.431 Z8.000 F6000.000
G1 X41.917 Y13.431 Z-0.250 F600.000
G1 X41.917 Y13.431 Z-0.250 F600.000
G1 X41.917 Y13.431 Z-0.250 F600.000
G1 X41.917 Y13.431 Z8.000 F6000.000
G1 X41.917 Y13.431 Z8.000 F6000.000
G1 X41.917 Y13.431 Z-0.250 F600.000
G1 X41.917 Y13.431 Z-0.250 F600.000
G1 X41.795 Y13.580 Z-0.250 F600.000
G1 X41.678 Y13.798 Z-0.250 F600.000
G1 X41.606 Y14.035 Z-0.250 F600.000
G1 X41.588 Y14.350 Z-0.250 F600.000
G1 X41.588 Y18.169 Z-0.250 F600.000
G1 X41.588 Y18.169 Z8.000 F6000.000
G1 X41.559 Y18.248 Z8.000 F6000.000
G1 X41.559 Y18.248 Z-0.250 F600.000
G1 X41.559 Y18.248 Z-0.250 F600.000
G1 X41.552 Y18.258 Z-0.250 F600.000
G1 X41.552 Y18.258 Z8.000 F6000.000
G1 X41.462 Y18.296 Z8.000 F6000.000
G1 X41.462 Y18.296 Z-0.250 F600.000
G1 X41.462 Y18.296 Z-0.250 F600.000
G1 X41.461 Y18.296 Z-0.250 F600.000
G1 X41.461 Y18.296 Z8.000 F6000.000
G1 X41.461 Y18.296 Z8.000 F6000.000
G1 X41.461 Y18.296 Z-0.250 F600.000
G1 X41.461 Y18.296 Z-0.250 F600.000
G1 X39.352 Y18.296 Z-0.250 F600.000
G1 X39.151 Y18.335 Z-0.250 F600.000
G1 X39.062 Y18.382 Z-0.250 F600.000
G1 X39.062 Y18.382 Z8.000 F6000.000
G1 X38.985 Y18.446 Z8.000 F6000.000
G1 X38.985 Y18.446 Z-0.250 F600.000
G1 X38.985 Y18.446 Z-0.250 F600.000
G1 X38.922 Y18.523 Z-0.250 F600.000
G1 X38.922 Y18.523 Z8.000 F6000.000
G1 X38.922 Y18.523 Z8.000 F6000.000
G1 X38.922 Y18.523 Z-0.250 F600.000
G1 X38.922 Y18.523 Z-0.250 F600.000
G1 X38.845 Y18.707 Z-0.250 F600.000
G1 X38.835 Y18.813 Z-0.250 F600.000
G1 X38.835 Y20.301 Z-0.250 F600.000
G1 X38.872 Y20.496 Z-0.250 F600.000
G1 X39.246 Y20.808 Z-0.250 F600.000
G1 X39.352 Y20.818 Z-0.250 F600.000
G1 X41.461 Y20.818 Z-0.250 F600.000
G1 X41.461 Y20.818 Z8.000 F6000.000
G1 X41.541 Y20.847 Z8.000 F6000.000
G1 X41.541 Y20.847 Z-0.250 F600.000
G1 X41.541 Y20.847 Z-0.250 F600.000
G1 X41.550 Y20.854 Z-0.250 F600.000
G1 X41.550 Y20.854 Z8.000 F6000.000
G1 X41.588 Y20.944 Z8.000 F6000.000
G1 X41.588 Y20.944 Z-0.250 F600.000
G1 X41.588 Y20.944 Z-0.250 F600.000
G1 X41.588 Y20.945 Z-0.250 F600.000
G1 X41.588 Y20.945 Z8.000 F6000.000
G1 X41.588 Y20.945 Z8.000 F6000.000
G1 X41.588 Y20.945 Z-0.250 F600.000
G1 X41.588 Y20.945 Z-0.250 F600.000
G1 X41.588 Y21.739 Z-0.250 F600.000
G1 X41.588 Y21.739 Z8.000 F6000.000
G1 X41.587 Y21.751 Z8.000 F6000.000
G1 X41.587 Y21.751 Z-0.250 F600.000
G1 X41.587 Y21.751 Z-0.250 F600.000
G1 X41.582 Y21.807 Z-0.250 F600.000
G1 X41.582 Y21.807 Z8.000 F6000.000
G1 X41.587 Y21.862 Z8.000 F6000.000
G1 X41.587 Y21.862 Z-0.250 F600.000
G1 X41.587 Y21.862 Z-0.250 F600.000
G1 X41.587 Y21.862 Z-0.250 F600.000
G1 X41.587 Y21.862 Z8.000 F6000.000
G1 X41.587 Y21.862 Z8.000 F6000.000
G1 X41.587 Y21.862 Z-0.250 F600.000
G1 X41.587 Y21.862 Z-0.250 F600.000
G1 X41.606 Y22.053 Z-0.250 F600.000
G1 X41.678 Y22.291 Z-0.250 F600.000
G1 X41.795 Y22.509 Z-0.250 F600.000
G1 X42.005 Y22.744 Z-0.250 F600.000
G1 X44.966 Y25.706 Z-0.250 F600.000
G1 X44.966 Y25.706 Z8.000 F6000.000
G1 X44.975 Y25.716 Z8.000 F6000.000
G1 X44.975 Y25.716 Z-0.250 F600.000
G1 X44.975 Y25.716 Z-0.250 F600.000
G1 X45.010 Y25.759 Z-0.250 F600.000
G1 X45.010 Y25.759 Z8.000 F6000.000
G1 X45.053 Y25.794 Z8.000 F6000.000
G1 X45.053 Y25.794 Z-0.250 F600.000
G1 X45.053 Y25.794 Z-0.250 F600.000
G1 X45.202 Y25.916 Z-0.250 F600.000
G1 X45.420 Y26.033 Z-0.250 F600.000
G1 X45.657 Y26.105 Z-0.250 F600.000
G1 X45.848 Y26.123 Z-0.250 F600.000
G1 X45.848 Y26.123 Z8.000 F6000.000
G1 X45.848 Y26.123 Z8.000 F6000.000
G1 X45.848 Y26.123 Z-0.250 F600.000
G1 X45.848 Y26.123 Z-0.250 F600.000
G1 X45.904 Y26.129 Z-0.250 F600.000
G1 X45.904 Y26.129 Z8.000 F6000.000
G1 X45.867 Y25.615 Z8.000 F6000.000
G1 X45.867 Y25.615 Z-0.250 F600.000
G1 X45.867 Y25.615 Z-0.250 F600.000
G1 X45.867 Y25.615 Z-0.250 F600.000
G1 X45.867 Y25.615 Z8.000 F6000.000
G1 X45.485 Y25.491 Z8.000 F6000.000
G1 X45.485 Y25.491 Z-0.250 F600.000
G1 X45.485 Y25.491 Z-0.250 F600.000
G1 X45.616 Y25.561 Z-0.250 F600.000
G1 X45.757 Y25.604 Z-0.250 F600.000
G1 X45.867 Y25.615 Z-0.250 F600.000
G1 X54.140 Y25.615 Z-0.250 F600.000
G1 X54.234 Y25.692 Z-0.250 F600.000
G1 X54.406 Y25.784 Z-0.250 F600.000
G1 X54.593 Y25.841 Z-0.250 F600.000
G1 X54.738 Y25.855 Z-0.250 F600.000
G1 X56.816 Y25.855 Z-0.250 F600.000
G1 X56.961 Y25.841 Z-0.250 F600.000
G1 X57.148 Y25.784 Z-0.250 F600.000
G1 X57.320 Y25.692 Z-0.250 F600.000
G1 X57.470 Y25.568 Z-0.250 F600.000
G1 X57.594 Y25.418 Z-0.250 F600.000
G1 X57.686 Y25.246 Z-0.250 F600.000
G1 X57.743 Y25.059 Z-0.250 F600.000
G1 X57.762 Y24.865 Z-0.250 F600.000
G1 X57.743 Y24.671 Z-0.250 F600.000
G1 X57.686 Y24.484 Z-0.250 F600.000
G1 X57.594 Y24.312 Z-0.250 F600.000
G1 X57.470 Y24.161 Z-0.250 F600.000
G1 X57.320 Y24.038 Z-0.250 F600.000
G1 X57.148 Y23.946 Z-0.250 F600.000
G1 X56.961 Y23.889 Z-0.250 F600.000
G1 X56.816 Y23.875 Z-0.250 F600.000
G1 X54.738 Y23.875 Z-0.250 F600.000
G1 X54.593 Y23.889 Z-0.250 F600.000
G1 X54.406 Y23.946 Z-0.250 F600.000
G1 X54.234 Y24.038 Z-0.250 F600.000
G1 X54.140 Y24.115 Z-0.250 F600.000
G1 X46.215 Y24.115 Z-0.250 F600.000
G1 X43.596 Y21.496 Z-0.250 F600.000
G1 X43.596 Y20.307 Z-0.250 F600.000
G1 X46.346 Y20.307 Z-0.250 F600.000
G1 X46.346 Y18.807 Z-0.250 F600.000
G1 X43.596 Y18.807 Z-0.250 F600.000
G1 X43.596 Y14.648 Z-0.250 F600.000
G1 X43.857 Y14.584 Z-0.250 F600.000
G1 X44.030 Y14.491 Z-0.250 F600.000
G1 X44.183 Y14.366 Z-0.250 F600.000
G1 X44.307 Y14.214 Z-0.250 F600.000
G1 X44.400 Y14.040 Z-0.250 F600.000
G1 X44.458 Y13.852 Z-0.250 F600.000
G1 X44.477 Y13.656 Z-0.250 F600.000
G1 X44.458 Y13.460 Z-0.250 F600.000
G1 X44.400 Y13.271 Z-0.250 F600.000
G1 X44.307 Y13.098 Z-0.250 F600.000
G1 X44.183 Y12.945 Z-0.250 F600.000
G1 X44.030 Y12.820 Z-0.250 F600.000
G1 X43.857 Y12.728 Z-0.250 F600.000
G1 X43.668 Y12.670 Z-0.250 F600.000
G1 X43.521 Y12.656 Z-0.250 F600.000
G1 X43.276 Y12.670 Z-0.250 F600.000
G1 X43.087 Y12.728 Z-0.250 F600.000
G1 X42.914 Y12.820 Z-0.250 F600.000
G1 X42.761 Y12.945 Z-0.250 F600.000
G1 X42.637 Y13.098 Z-0.250 F600.000
G1 X42.544 Y13.271 Z-0.250 F600.000
G1 X42.486 Y13.460 Z-0.250 F600.000
G1 X42.473 Y13.594 Z-0.250 F600.000
G1 X42.342 Y13.725 Z-0.250 F600.000
G1 X42.342 Y13.725 Z8.000 F6000.000
G1 X42.342 Y13.725 Z8.000 F6000.000
G1 X42.342 Y13.725 Z-0.250 F600.000
G1 X42.342 Y13.725 Z-0.250 F600.000
G1 X42.313 Y13.749 Z-0.250 F600.000
G1 X42.313 Y13.749 Z8.000 F6000.000
G1 X42.257 Y13.817 Z8.000 F6000.000
G1 X42.257 Y13.817 Z-0.250 F600.000
G1 X42.257 Y13.817 Z-0.250 F600.000
G1 X42.219 Y13.863 Z-0.250 F600.000
G1 X42.219 Y13.863 Z8.000 F6000.000
G1 X42.219 Y13.863 Z8.000 F6000.000
G1 X42.219 Y13.863 Z-0.250 F600.000
G1 X42.219 Y13.863 Z-0.250 F600.000
G1 X42.166 Y13.964 Z-0.250 F600.000
G1 X42.107 Y14.135 Z-0.250 F600.000
G1 X42.092 Y14.282 Z-0.250 F600.000
G1 X42.096 Y18.807 Z-0.250 F600.000
G1 X39.346 Y18.807 Z-0.250 F600.000
G1 X39.346 Y20.307 Z-0.250 F600.000
G1 X42.096 Y20.307 Z-0.250 F600.000
G1 X42.096 Y21.770 Z-0.250 F600.000
G1 X42.107 Y21.954 Z-0.250 F600.000
G1 X42.150 Y22.095 Z-0.250 F600.000
G1 X42.219 Y22.226 Z-0.250 F600.000
G1 X42.313 Y22.340 Z-0.250 F600.000
G1 X45.348 Y25.369 Z-0.250 F600.000
G1 X45.348 Y25.369 Z8.000 F6000.000
G1 X45.348 Y25.369 Z8.000 F6000.000
G1 X45.348 Y25.369 Z-0.250 F600.000
G1 X45.348 Y25.369 Z-0.250 F600.000
G1 X45.371 Y25.398 Z-0.250 F600.000
G1 X45.371 Y25.398 Z8.000 F6000.000
G1 X45.409 Y25.429 Z8.000 F6000.000
G1 X45.409 Y25.429 Z-0.250 F600.000
G1 X45.409 Y25.429 Z-0.250 F600.000
G1 X45.485 Y25.491 Z-0.250 F600.000
G1 X45.485 Y25.491 Z8.000 F6000.000
G1 X45.053 Y25.794 Z8.000 F6000.000
G1 X45.053 Y25.794 Z-0.250 F600.000
G1 X45.053 Y25.794 Z-0.250 F600.000
G1 X45.053 Y25.794 Z-0.250 F600.000
G1 X45.053 Y25.794 Z8.000 F6000.000
G1 X46.388 Y23.570 Z8.000 F6000.000
G1 X46.388 Y23.570 Z-0.250 F600.000
G1 X46.388 Y23.570 Z-0.250 F600.000
G1 X46.388 Y23.570 Z-0.250 F600.000
G1 X46.388 Y23.570 Z8.000 F6000.000
G1 X46.446 Y20.808 Z8.000 F6000.000
G1 X46.446 Y20.808 Z-0.250 F600.000
G1 X46.446 Y20.808 Z-0.250 F600.000
G1 X46.541 Y20.778 Z-0.250 F600.000
G1 X46.541 Y20.778 Z8.000 F6000.000
G1 X46.818 Y20.502 Z8.000 F6000.000
G1 X46.818 Y20.502 Z-0.250 F600.000
G1 X46.818 Y20.502 Z-0.250 F600.000
G1 X46.847 Y20.406 Z-0.250 F600.000
G1 X46.847 Y20.406 Z8.000 F6000.000
G1 X46.847 Y18.707 Z8.000 F6000.000
G1 X46.847 Y18.707 Z-0.250 F600.000
G1 X46.847 Y18.707 Z-0.250 F600.000
G1 X46.818 Y18.612 Z-0.250 F600.000
G1 X46.818 Y18.612 Z8.000 F6000.000
G1 X46.541 Y18.335 Z8.000 F6000.000
G1 X46.541 Y18.335 Z-0.250 F600.000
G1 X46.541 Y18.335 Z-0.250 F600.000
G1 X46.446 Y18.306 Z-0.250 F600.000
G1 X46.446 Y18.306 Z8.000 F6000.000
G1 X44.104 Y21.233 Z8.000 F6000.000
G1 X44.104 Y21.233 Z-0.250 F600.000
G1 X44.104 Y21.233 Z-0.250 F600.000
G1 X44.104 Y21.234 Z-0.250 F600.000
G1 X44.104 Y21.234 Z8.000 F6000.000
G1 X42.096 Y21.770 Z8.000 F6000.000
G1 X42.096 Y21.770 Z-0.250 F600.000
G1 X42.096 Y21.770 Z-0.250 F600.000
G1 X42.092 Y21.807 Z-0.250 F600.000
G1 X42.092 Y21.807 Z8.000 F6000.000
G1 X42.313 Y22.340 Z8.000 F6000.000
G1 X42.313 Y22.340 Z-0.250 F600.000
G1 X42.313 Y22.340 Z-0.250 F600.000
G1 X42.342 Y22.363 Z-0.250 F600.000
G1 X42.342 Y22.363 Z8.000 F6000.000
G1 X42.005 Y22.744 Z8.000 F6000.000
G1 X42.005 Y22.744 Z-0.250 F600.000
G1 X42.005 Y22.744 Z-0.250 F600.000
G1 X42.003 Y22.743 Z-0.250 F600.000
G1 X42.003 Y22.743 Z8.000 F6000.000
G1 X39.246 Y20.808 Z8.000 F6000.000
G1 X39.246 Y20.808 Z-0.250 F600.000
G1 X39.246 Y20.808 Z-0.250 F600.000
G1 X39.157 Y20.780 Z-0.250 F600.000
G1 X39.157 Y20.780 Z8.000 F6000.000
G1 X38.872 Y20.496 Z8.000 F6000.000
G1 X38.872 Y20.496 Z-0.250 F600.000
G1 X38.872 Y20.496 Z-0.250 F600.000
G1 X38.845 Y20.406 Z-0.250 F600.000
G1 X38.845 Y20.406 Z8.000 F6000.000
G1 X38.845 Y18.707 Z8.000 F6000.000
G1 X38.845 Y18.707 Z-0.250 F600.000
G1 X38.845 Y18.707 Z-0.250 F600.000
G1 X38.874 Y18.612 Z-0.250 F600.000
G1 X38.874 Y18.612 Z8.000 F6000.000
G1 X39.151 Y18.335 Z8.000 F6000.000
G1 X39.151 Y18.335 Z-0.250 F600.000
G1 X39.151 Y18.335 Z-0.250 F600.000
G1 X39.246 Y18.306 Z-0.250 F600.000
G1 X39.246 Y18.306 Z8.000 F6000.000
G1 X41.588 Y14.350 Z8.000 F6000.000
G1 X41.588 Y14.350 Z-0.250 F600.000
G1 X41.588 Y14.350 Z-0.250 F600.000
G1 X41.588 Y14.348 Z-0.250 F600.000
G1 X41.588 Y14.348 Z8.000 F6000.000
G1 X42.092 Y14.282 Z8.000 F6000.000
G1 X42.092 Y14.282 Z-0.250 F600.000
G1 X42.092 Y14.282 Z-0.250 F600.000
G1 X42.096 Y14.319 Z-0.250 F600.000
G1 X42.096 Y14.319 Z8.000 F6000.000
G1 X42.150 Y13.993 Z8.000 F6000.000
G1 X42.150 Y13.993 Z-0.250 F600.000
G1 X42.150 Y13.993 Z-0.250 F600.000
G1 X42.166 Y13.964 Z-0.250 F600.000
G1 X42.166 Y13.964 Z8.000 F6000.000
G1 X43.596 Y14.648 Z8.000 F6000.000
G1 X43.596 Y14.648 Z-0.250 F600.000
G1 X43.596 Y14.648 Z-0.250 F600.000
G1 X43.668 Y14.641 Z-0.250 F600.000
G1 X43.668 Y14.641 Z8.000 F6000.000
G1 X43.521 Y12.656 Z8.000 F6000.000
G1 X43.521 Y12.656 Z-0.250 F600.000
G1 X43.521 Y12.656 Z-0.250 F600.000
G1 X43.423 Y12.656 Z-0.250 F600.000
G1 X43.423 Y12.656 Z8.000 F6000.000
G1 X32.510 Y18.612 Z8.000 F6000.000
G1 X32.510 Y18.612 Z-0.250 F600.000
G1 X32.510 Y18.612 Z-0.250 F600.000
G1 X32.539 Y18.707 Z-0.250 F600.000
G1 X32.539 Y18.707 Z8.000 F6000.000
G1 X32.233 Y18.335 Z8.000 F6000.000
G1 X32.233 Y18.335 Z-0.250 F600.000
G1 X32.233 Y18.335 Z-0.250 F600.000
G1 X32.138 Y18.306 Z-0.250 F600.000
G1 X32.138 Y18.306 Z8.000 F6000.000
G1 X32.539 Y20.406 Z8.000 F6000.000
G1 X32.539 Y20.406 Z-0.250 F600.000
G1 X32.539 Y20.406 Z-0.250 F600.000
G1 X32.510 Y20.502 Z-0.250 F600.000
G1 X32.510 Y20.502 Z8.000 F6000.000
G1 X32.233 Y20.778 Z8.000 F6000.000
G1 X32.233 Y20.778 Z-0.250 F600.000
G1 X32.233 Y20.778 Z-0.250 F600.000
G1 X32.138 Y20.808 Z-0.250 F600.000
G1 X32.138 Y20.808 Z8.000 F6000.000
G1 X29.109 Y20.818 Z8.000 F6000.000
G1 X29.109 Y20.818 Z-0.250 F600.000
G1 X29.109 Y20.818 Z-0.250 F600.000
G1 X29.108 Y20.818 Z-0.250 F600.000
G1 X29.108 Y20.818 Z8.000 F6000.000
G1 X28.575 Y18.807 Z8.000 F6000.000
G1 X28.575 Y18.807 Z-0.250 F600.000
G1 X28.575 Y18.807 Z-0.250 F600.000
G1 X28.538 Y18.803 Z-0.250 F600.000
G1 X28.538 Y18.803 Z8.000 F6000.000
G1 X28.503 Y18.296 Z8.000 F6000.000
G1 X28.503 Y18.296 Z-0.250 F600.000
G1 X28.503 Y18.296 Z-0.250 F600.000
G1 X28.501 Y18.296 Z-0.250 F600.000
G1 X28.501 Y18.296 Z8.000 F6000.000
G1 X29.572 Y15.157 Z8.000 F6000.000
G1 X29.572 Y15.157 Z-0.250 F600.000
G1 X29.572 Y15.157 Z-0.250 F600.000
G1 X29.667 Y15.127 Z-0.250 F600.000
G1 X29.667 Y15.127 Z8.000 F6000.000
G1 X29.756 Y15.080 Z8.000 F6000.000
G1 X29.756 Y15.080 Z-0.250 F600.000
G1 X29.756 Y15.080 Z-0.250 F600.000
G1 X29.667 Y15.127 Z-0.250 F600.000
G1 X29.466 Y15.167 Z-0.250 F600.000
G1 X28.811 Y15.164 Z-0.250 F600.000
G1 X28.726 Y15.079 Z-0.250 F600.000
G1 X28.726 Y14.656 Z-0.250 F600.000
G1 X29.472 Y14.656 Z-0.250 F600.000
G1 X29.472 Y14.406 Z-0.250 F600.000
G1 X29.982 Y14.406 Z-0.250 F600.000
G1 X29.983 Y14.650 Z-0.250 F600.000
G1 X29.973 Y14.755 Z-0.250 F600.000
G1 X29.896 Y14.939 Z-0.250 F600.000
G1 X29.896 Y14.939 Z8.000 F6000.000
G1 X29.896 Y14.939 Z8.000 F6000.000
G1 X29.896 Y14.939 Z-0.250 F600.000
G1 X29.896 Y14.939 Z-0.250 F600.000
G1 X29.833 Y15.017 Z-0.250 F600.000
G1 X29.833 Y15.017 Z8.000 F6000.000
G1 X29.944 Y14.851 Z8.000 F6000.000
G1 X29.944 Y14.851 Z-0.250 F600.000
G1 X29.944 Y14.851 Z-0.250 F600.000
G1 X29.973 Y14.755 Z-0.250 F600.000
G1 X29.973 Y14.755 Z8.000 F6000.000
G1 X29.973 Y12.556 Z8.000 F6000.000
G1 X29.973 Y12.556 Z-0.250 F600.000
G1 X29.973 Y12.556 Z-0.250 F600.000
G1 X29.944 Y12.461 Z-0.250 F600.000
G1 X29.944 Y12.461 Z8.000 F6000.000
G1 X29.896 Y12.372 Z8.000 F6000.000
G1 X29.896 Y12.372 Z-0.250 F600.000
G1 X29.896 Y12.372 Z-0.250 F600.000
G1 X29.944 Y12.461 Z-0.250 F600.000
G1 X29.983 Y12.662 Z-0.250 F600.000
G1 X29.982 Y12.906 Z-0.250 F600.000
G1 X29.472 Y12.906 Z-0.250 F600.000
G1 X29.472 Y12.656 Z-0.250 F600.000
G1 X28.726 Y12.656 Z-0.250 F600.000
G1 X28.726 Y12.232 Z-0.250 F600.000
G1 X28.811 Y12.148 Z-0.250 F600.000
G1 X29.466 Y12.145 Z-0.250 F600.000
G1 X29.572 Y12.155 Z-0.250 F600.000
G1 X29.756 Y12.231 Z-0.250 F600.000
G1 X29.756 Y12.231 Z8.000 F6000.000
G1 X29.756 Y12.231 Z8.000 F6000.000
G1 X29.756 Y12.231 Z-0.250 F600.000
G1 X29.756 Y12.231 Z-0.250 F600.000
G1 X29.833 Y12.295 Z-0.250 F600.000
G1 X29.833 Y12.295 Z8.000 F6000.000
G1 X29.667 Y12.184 Z8.000 F6000.000
G1 X29.667 Y12.184 Z-0.250 F600.000
G1 X29.667 Y12.184 Z-0.250 F600.000
G1 X29.572 Y12.155 Z-0.250 F600.000
G1 X29.572 Y12.155 Z8.000 F6000.000
G1 X27.372 Y12.155 Z8.000 F6000.000
G1 X27.372 Y12.155 Z-0.250 F600.000
G1 X27.372 Y12.155 Z-0.250 F600.000
G1 X27.277 Y12.184 Z-0.250 F600.000
G1 X27.277 Y12.184 Z8.000 F6000.000
G1 X27.188 Y12.231 Z8.000 F6000.000
G1 X27.188 Y12.231 Z-0.250 F600.000
G1 X27.188 Y12.231 Z-0.250 F600.000
G1 X27.277 Y12.184 Z-0.250 F600.000
G1 X27.478 Y12.145 Z-0.250 F600.000
G1 X28.133 Y12.148 Z-0.250 F600.000
G1 X28.218 Y12.232 Z-0.250 F600.000
G1 X28.218 Y12.656 Z-0.250 F600.000
G1 X27.472 Y12.656 Z-0.250 F600.000
G1 X27.472 Y13.402 Z-0.250 F600.000
G1 X27.048 Y13.402 Z-0.250 F600.000
G1 X26.964 Y13.317 Z-0.250 F600.000
G1 X26.961 Y12.662 Z-0.250 F600.000
G1 X26.971 Y12.556 Z-0.250 F600.000
G1 X27.048 Y12.372 Z-0.250 F600.000
G1 X27.048 Y12.372 Z8.000 F6000.000
G1 X27.048 Y12.372 Z8.000 F6000.000
G1 X27.048 Y12.372 Z-0.250 F600.000
G1 X27.048 Y12.372 Z-0.250 F600.000
G1 X27.111 Y12.295 Z-0.250 F600.000
G1 X27.111 Y12.295 Z8.000 F6000.000
G1 X27.000 Y12.461 Z8.000 F6000.000
G1 X27.000 Y12.461 Z-0.250 F600.000
G1 X27.000 Y12.461 Z-0.250 F600.000
G1 X26.971 Y12.556 Z-0.250 F600.000
G1 X26.971 Y12.556 Z8.000 F6000.000
G1 X26.971 Y14.755 Z8.000 F6000.000
G1 X26.971 Y14.755 Z-0.250 F600.000
G1 X26.971 Y14.755 Z-0.250 F600.000
G1 X27.000 Y14.851 Z-0.250 F600.000
G1 X27.000 Y14.851 Z8.000 F6000.000
G1 X27.048 Y14.939 Z8.000 F6000.000
G1 X27.048 Y14.939 Z-0.250 F600.000
G1 X27.048 Y14.939 Z-0.250 F600.000
G1 X27.000 Y14.851 Z-0.250 F600.000
G1 X26.961 Y14.650 Z-0.250 F600.000
G1 X26.964 Y13.994 Z-0.250 F600.000
G1 X27.048 Y13.910 Z-0.250 F600.000
G1 X27.472 Y13.910 Z-0.250 F600.000
G1 X27.472 Y14.656 Z-0.250 F600.000
G1 X28.218 Y14.656 Z-0.250 F600.000
G1 X28.218 Y15.079 Z-0.250 F600.000
G1 X28.133 Y15.164 Z-0.250 F600.000
G1 X27.478 Y15.167 Z-0.250 F600.000
G1 X27.372 Y15.156 Z-0.250 F600.000
G1 X27.188 Y15.080 Z-0.250 F600.000
G1 X27.188 Y15.080 Z8.000 F6000.000
G1 X27.188 Y15.080 Z8.000 F6000.000
G1 X27.188 Y15.080 Z-0.250 F600.000
G1 X27.188 Y15.080 Z-0.250 F600.000
G1 X27.111 Y15.017 Z-0.250 F600.000
G1 X27.111 Y15.017 Z8.000 F6000.000
G1 X27.277 Y15.127 Z8.000 F6000.000
G1 X27.277 Y15.127 Z-0.250 F600.000
G1 X27.277 Y15.127 Z-0.250 F600.000
G1 X27.372 Y15.156 Z-0.250 F600.000
G1 X27.372 Y15.156 Z8.000 F6000.000
G1 X24.938 Y18.306 Z8.000 F6000.000
G1 X24.938 Y18.306 Z-0.250 F600.000
G1 X24.938 Y18.306 Z-0.250 F600.000
G1 X24.843 Y18.335 Z-0.250 F600.000
G1 X24.843 Y18.335 Z8.000 F6000.000
G1 X24.566 Y18.612 Z8.000 F6000.000
G1 X24.566 Y18.612 Z-0.250 F600.000
G1 X24.566 Y18.612 Z-0.250 F600.000
G1 X24.537 Y18.707 Z-0.250 F600.000
G1 X24.537 Y18.707 Z8.000 F6000.000
G1 X24.537 Y20.406 Z8.000 F6000.000
G1 X24.537 Y20.406 Z-0.250 F600.000
G1 X24.537 Y20.406 Z-0.250 F600.000
G1 X24.566 Y20.502 Z-0.250 F600.000
G1 X24.566 Y20.502 Z8.000 F6000.000
G1 X24.843 Y20.778 Z8.000 F6000.000
G1 X24.843 Y20.778 Z-0.250 F600.000
G1 X24.843 Y20.778 Z-0.250 F600.000
G1 X24.938 Y20.808 Z-0.250 F600.000
G1 X24.938 Y20.808 Z8.000 F6000.000
G1 X27.023 Y36.864 Z8.000 F6000.000
G1 X27.023 Y36.864 Z-0.250 F600.000
G1 X27.023 Y36.864 Z-0.250 F600.000
G1 X27.023 Y36.866 Z-0.250 F600.000
G1 X27.023 Y36.866 Z8.000 F6000.000
G1 X27.530 Y36.829 Z8.000 F6000.000
G1 X27.530 Y36.829 Z-0.250 F600.000
G1 X27.530 Y36.829 Z-0.250 F600.000
G1 X27.534 Y36.792 Z-0.250 F600.000
G1 X27.534 Y36.792 Z8.000 F6000.000
G1 X13.000 Y36.792 Z8.000 F6000.000
M5
